!!!!SEGMENT: pl-stab--15a--001-001_rodowski-aleksander--missa-in-b-kyrie.krn
!!!cenid: 18xx:3441
!!!COM: Rodowski, Aleksander
!!!COM-rismID: pe30009627
!!!CDT: <1790->1810
!!!CNT: Polish
!!!OPR: Missa in B
!!!OTL: Kyrie
!!!OMV: 001
!!!PDT: 1802
!!!AGN:
!!!SMS-siglum: PL-STAb
!!!SMS-shelfmark: 15a
!!!SMS-shelfwork: 001-001 M
!!!SMS-variant: Canto PL-STAb 15a:9
!!!SMS-altvar: Canto PL-STAb 15a:12
!!!NIFC-rismSourceID: 301050682
!!!NIFC-islandoraID: pl-stab:2768
!!!URL-pdf-islandora: https://repozytorium.nifc.pl/islandora/object/pl-stab%3A2768/datastream/PDF/view
!!!URL-scan: https://polish.musicsources.pl/pl/lokalizacje/galeria/rekopisy/4421 @EN{Scan on Polish Music Sources Website} @PL{Skany w portalu Dziedzictwo Muzyki Polskiej w otwartym dostępie}
!!!ONB-nifc: UWAGA: części Mszy: 1. Kyrie, 2. Gloria, 3. Patrem, 4. Sanctus, 5. Benedictus, 6. Agnus Dei
!!!AIN: 1 bass 2 clars 2 cor 1 organ 1 soprn 2 violn
!!!key: B-
**kern	**kern	**dynam	**kern	**dynam	**kern	**text	**kern	**text	**kern	**kern	**kern	**kern	**dynam
*	*group4	*	*group4	*	*group3	*	*group3	*	*group2	*group2	*group1	*group1	*
*part9	*part8	*part8	*part7	*part7	*part6	*part6	*part5	*part5	*part4	*part3	*part2	*part1	*part1
*staff9	*staff8	*	*staff7	*	*staff6	*staff6	*staff5	*staff5	*staff4	*staff3	*staff2	*staff1	*
*I"Organo	*I"Violino Secundo	*	*I"Violino Primo	*	*I"Baſso	*	*I"Canto	*	*I"Cornu Secundo in B.	*I"Cornu Primo in B.	*I"Clarinetto Secundo	*I"Clarinetto Primo	*
*I'org	*I'vl 2	*	*I'vl 1	*	*I'B	*	*I'S	*	*I'cor 2 in B	*I'cor 1 in B	*I'cl 2	*I'cl 1	*
*Iorgan	*Ivioln	*	*Ivioln	*	*Ibass	*	*Isoprn	*	*Icor	*Icor	*Iclars	*Iclars	*
*ICklav	*ICstr	*	*ICstr	*	*ICvox	*	*ICvox	*	*ICbras	*ICbras	*ICww	*ICww	*
*	*	*	*	*	*IGsolo	*	*IGsolo	*	*	*	*	*	*
*clefF4	*clefG2	*	*clefG2	*	*clefF4	*	*clefC1	*	*clefG2	*clefG2	*clefG2	*clefG2	*
*	*	*	*	*	*	*	*	*	*ITrd1c2	*ITrd1c2	*ITrd1c2	*ITrd1c2	*
*k[b-e-]	*k[b-e-]	*	*k[b-e-]	*	*k[b-e-]	*	*k[b-e-]	*	*k[b-e-]	*k[b-e-]	*k[b-e-]	*k[b-e-]	*
*B-:	*B-:	*	*B-:	*	*B-:	*	*B-:	*	*B-:	*B-:	*B-:	*B-:	*
*M4/4	*M4/4	*	*M4/4	*	*M4/4	*	*M4/4	*	*M4/4	*M4/4	*M4/4	*M4/4	*
*met(c)	*met(c)	*	*met(c)	*	*met(c)	*	*met(c)	*	*met(c)	*met(c)	*met(c)	*met(c)	*
*all\left	*all\left	*	*all\left	*	*all\left	*	*all\left	*	*all\left	*all\left	*all\left	*all\left	*
*2\right	*2\right	*	*2\right	*	*2\right	*	*2\right	*	*2\right	*2\right	*2\right	*2\right	*
=1	=1	=1	=1	=1	=1	=1	=1	=1	=1	=1	=1	=1	=1
*tremolo	*	*	*	*	*	*	*	*	*	*	*	*	*
!	!	!	!	!	!	!	!	!	!	!	!	!LO:TX:t=P:problem=W utworze jest sporo dysonujących momentów, musiałem dodać puste takty żeby głosy się zgrały (organy, corna)	!
!	!	!	!	!	!	!	!LO:TX:t=P:problem=nazwa instrumentu zapisana niebieskim ołówkiem	!	!	!	!	!	!
!	!	!	!	!	!	!	!LO:TX:a:i:t=Moderato:color=blue	!	!	!LO:TX:a:i:t=Moderatto	!	!	!
!LO:TX:a:i:t=Moderato	!LO:TX:a:i:t=Moderato	!	!LO:TX:a:i:t=Moderato	!	!LO:TX:a:i:t=Moderato	!	!	!	!LO:TX:a:i:t=Moderatto	!	!	!	!
8B-\L	2d 2B-/	.	2b- 2d/	.	2D/	Ky-	2b-\	Ky-	2d/	2b-\	2d/	2b-\	.
8B-\	.	.	.	.	.	.	.	.	.	.	.	.	.
8B-\	.	.	.	.	.	.	.	.	.	.	.	.	.
8B-\J	.	.	.	.	.	.	.	.	.	.	.	.	.
8B-\L	8cc\L	.	8ee-\L	.	8c\L	-ri-	8ee-\L	-ri-	2r	2r	8cc\L	8ee-\L	.
8B-\	8b-\	.	8dd\	.	8B-\J	.	8dd\J	.	.	.	8b-\	8dd\	.
8B-\	8ee-\	.	8gg\	.	8e-\L	-e-	8gg\L	-e-	.	.	8ee-\	8gg\	.
8B-\J	8dd\J	.	8ff\J	.	8d\J	.	8ff\J	.	.	.	8dd\J	8ff\J	.
=2	=2	=2	=2	=2	=2	=2	=2	=2	=2	=2	=2	=2	=2
8B-\L	4.dd\	.	4.ff\	.	4.d\	-lei-	4.ff\	-lei-	4.dd\	4.ff\	4.dd\	4.ff\	.
8B-\	.	.	.	.	.	.	.	.	.	.	.	.	.
8B-\	.	.	.	.	.	.	.	.	.	.	.	.	.
8B-\J	8cc\	.	8ee-\	.	8c\	.	8ee-\	.	8cc\	8ee-\	8cc\	8ee-\	.
*Xtremolo	*	*	*	*	*	*	*	*	*	*	*	*	*
8B-\L	4b-\	.	4dd\	.	4B-\	-son	4dd\	-son	4b-\	4dd\	4b-\	4dd\	.
8B-\	.	.	.	.	.	.	.	.	.	.	.	.	.
8D\	8d/L	.	8b-\L	.	8D/L	e-	8b-\L	e-	4r	4r	4r	4r	.
8D\J	8f/J	.	8dd\J	.	8F/J	.	8dd\J	.	.	.	.	.	.
=3	=3	=3	=3	=3	=3	=3	=3	=3	=3	=3	=3	=3	=3
*tremolo	*	*	*	*	*	*	*	*	*	*	*	*	*
8E-\L	4.e-/	.	4.cc\	.	4.E-/	-lei-	(4.cc\	-lei-	2cc\	2ee-\	4e-/	4cc\	.
8E-\	.	.	.	.	.	.	.	.	.	.	.	.	.
8E-\	.	.	.	.	.	.	.	.	.	.	4r	4r	.
8E-\J	8g/	.	8ee-\	.	8G/	.	8ee-\)	.	.	.	.	.	.
8F\L	4.c/	.	4.a/	.	4.C/	.	(4.a\	.	2f/	2cc\	4c/	4a/	.
8F\	.	.	.	.	.	.	.	.	.	.	.	.	.
8F\	.	.	.	.	.	.	.	.	.	.	4r	4r	.
8F\J	8e-/	.	8cc\	.	8E-/	.	8cc\)	.	.	.	.	.	.
*Xtremolo	*	*	*	*	*	*	*	*	*	*	*	*	*
=4	=4	=4	=4	=4	=4	=4	=4	=4	=4	=4	=4	=4	=4
4B-\	8d/L	.	8b-/L	.	4D/	-son	4b-\	-son	4d/	4b-\	4d/	4b-\	.
.	8c/	.	8a/	.	.	.	.	.	.	.	.	.	.
4r	8d/	.	8b-/	.	4r	.	4r	.	4r	4r	4r	4r	.
.	8e-/J	.	8g/J	.	.	.	.	.	.	.	.	.	.
2r	8d/L	.	8f/L	.	2r	.	2r	.	2r	2r	2r	2r	.
.	8e-/	.	8g/	.	.	.	.	.	.	.	.	.	.
.	8d/	.	8f/	.	.	.	.	.	.	.	.	.	.
.	8c/J	.	8e-/J	.	.	.	.	.	.	.	.	.	.
=5	=5	=5	=5	=5	=5	=5	=5	=5	=5	=5	=5	=5	=5
*tremolo	*	*	*	*	*	*	*	*	*	*	*	*	*
!	!	!LO:DY:a	!	!LO:DY:a	!	!	!	!	!	!	!	!	!LO:DY:a
8B-\L	2B-/	p	2d/	p	1r	.	1r	.	2b-\	2b-\	2d/	2b-\	p
8B-\	.	.	.	.	.	.	.	.	.	.	.	.	.
8B-\	.	.	.	.	.	.	.	.	.	.	.	.	.
8B-\J	.	.	.	.	.	.	.	.	.	.	.	.	.
8B-\L	8c/L	.	8e-/L	.	.	.	.	.	2r	2r	8cc\L	8ee-\L	.
8B-\	8B-/	.	8d/	.	.	.	.	.	.	.	8b-\	8dd\	.
8B-\	8e-/	.	8g/	.	.	.	.	.	.	.	8ee-\	8gg\	.
8B-\J	8d/J	.	8f/J	.	.	.	.	.	.	.	8dd\J	8ff\J	.
=6	=6	=6	=6	=6	=6	=6	=6	=6	=6	=6	=6	=6	=6
8B-\L	4.d/	.	4.f/	.	1r	.	1r	.	4.dd\	4.ff\	4.dd\	4.ff\	.
8B-\	.	.	.	.	.	.	.	.	.	.	.	.	.
8B-\	.	.	.	.	.	.	.	.	.	.	.	.	.
8B-\J	8c/	.	8e-/	.	.	.	.	.	8cc\	8ee-\	8cc\	8ee-\	.
*Xtremolo	*	*	*	*	*	*	*	*	*	*	*	*	*
8B-\L	4B-/	.	4d/	.	.	.	.	.	4b-\	4dd\	4b-\	4dd\	.
8B-\	.	.	.	.	.	.	.	.	.	.	.	.	.
8D\	4r	.	4B-/	.	.	.	.	.	4r	4r	4r	4r	.
8D\J	.	.	.	.	.	.	.	.	.	.	.	.	.
=7	=7	=7	=7	=7	=7	=7	=7	=7	=7	=7	=7	=7	=7
*tremolo	*	*	*	*	*	*	*	*	*	*	*	*	*
8E-\L	4c/	.	4c/	.	1r	.	1r	.	2r	2r	4cc\	4cc\	.
8E-\	.	.	.	.	.	.	.	.	.	.	.	.	.
8E-\	8e-/L	.	8g/L	.	.	.	.	.	.	.	8ee-\L	8gg\L	.
8E-\J	8d/J	.	8f/J	.	.	.	.	.	.	.	8dd\J	8ff\J	.
*Xtremolo	*	*	*	*	*	*	*	*	*	*	*	*	*
8E-\L	4c/	.	4e-/	.	.	.	.	.	4cc\	4ee-\	4cc\	4ee-\	.
8E-\	.	.	.	.	.	.	.	.	.	.	.	.	.
8En\	4B-/	.	4d/	.	.	.	.	.	4b-\	4dd\	4b-\	4dd\	.
8E\J	.	.	.	.	.	.	.	.	.	.	.	.	.
=8	=8	=8	=8	=8	=8	=8	=8	=8	=8	=8	=8	=8	=8
!	!	!	!LO:LB:g=original	!	!	!	!	!	!	!	!	!	!
4F\	4B-/	.	4d/	.	1r	.	1r	.	4b-\	4dd\	4b-\	4dd\	.
4F\	4A/	.	4c/	.	.	.	.	.	4f\	4cc\	4a\	4cc\	.
2r	2r	.	4a\	.	.	.	.	.	2r	2r	2r	4r	.
.	.	.	4b-\	.	.	.	.	.	.	.	.	4r	.
=9	=9	=9	=9	=9	=9	=9	=9	=9	=9	=9	=9	=9	=9
*tremolo	*tremolo	*	*	*	*	*	*	*	*	*	*	*	*
!	!	!LO:DY:a	!	!LO:DY:a	!	!	!	!	!	!	!	!	!LO:DY:a
!	!	!	!	!	!	!	!	!	!	!	!	!LO:LB:g=original	!
!	!LO:LB:g=original	!	!	!	!	!	!	!	!	!	!	!	!
8F\L	16aLL 16f/	f	2cc\	f	2F\	Chris-	2a\	Chris-	2f/	2cc\	2a\	2cc\	f
.	16a 16f/	.	.	.	.	.	.	.	.	.	.	.	.
8F\	16a 16f/	.	.	.	.	.	.	.	.	.	.	.	.
.	16a 16f/	.	.	.	.	.	.	.	.	.	.	.	.
8F\	16a 16f/	.	.	.	.	.	.	.	.	.	.	.	.
.	16a 16f/	.	.	.	.	.	.	.	.	.	.	.	.
8F\J	16a 16f/	.	.	.	.	.	.	.	.	.	.	.	.
.	16aJJ 16f/	.	.	.	.	.	.	.	.	.	.	.	.
*	*	*	*Xtuplet	*	*	*	*	*	*	*	*	*	*
8F\L	16fLL 16A/	.	12cc\L	.	4F\	-te	4a\	-te	2r	2r	2a\	2ff\	.
.	16f 16A/	.	.	.	.	.	.	.	.	.	.	.	.
.	.	.	12dd\	.	.	.	.	.	.	.	.	.	.
8F\	16f 16A/	.	.	.	.	.	.	.	.	.	.	.	.
.	.	.	12een\J	.	.	.	.	.	.	.	.	.	.
.	16f 16A/	.	.	.	.	.	.	.	.	.	.	.	.
8F\	16f 16A/	.	12ff\L	.	4F\	e-	4a\	e-	.	.	.	.	.
.	16f 16A/	.	.	.	.	.	.	.	.	.	.	.	.
.	.	.	12gg\	.	.	.	.	.	.	.	.	.	.
8F\J	16f 16A/	.	.	.	.	.	.	.	.	.	.	.	.
.	.	.	12aa\J	.	.	.	.	.	.	.	.	.	.
.	16fJJ 16A/	.	.	.	.	.	.	.	.	.	.	.	.
=10	=10	=10	=10	=10	=10	=10	=10	=10	=10	=10	=10	=10	=10
!LO:LB:g=original	!	!	!	!	!	!	!	!	!	!	!LO:LB:g=original	!	!
8G\L	16gLL 16c/	.	2gg\	.	2G\	-lei-	2b-\	-lei-	2cc\	2cc\	2g\	2eeX\	.
.	16g 16c/	.	.	.	.	.	.	.	.	.	.	.	.
8G\	16g 16c/	.	.	.	.	.	.	.	.	.	.	.	.
.	16g 16c/	.	.	.	.	.	.	.	.	.	.	.	.
8G\	16g 16c/	.	.	.	.	.	.	.	.	.	.	.	.
.	16g 16c/	.	.	.	.	.	.	.	.	.	.	.	.
8G\J	16g 16c/	.	.	.	.	.	.	.	.	.	.	.	.
.	16gJJ 16c/	.	.	.	.	.	.	.	.	.	.	.	.
8C/L	16b-LL 16g\	.	12cc\L	.	2E-\	-son	2g\	-son	2r	2r	2b-\	2gg\	.
.	16b- 16g\	.	.	.	.	.	.	.	.	.	.	.	.
.	.	.	12ee-\	.	.	.	.	.	.	.	.	.	.
8C/	16b- 16g\	.	.	.	.	.	.	.	.	.	.	.	.
.	.	.	12ff\J	.	.	.	.	.	.	.	.	.	.
.	16b- 16g\	.	.	.	.	.	.	.	.	.	.	.	.
8C/	16b- 16g\	.	12gg\L	.	.	.	.	.	.	.	.	.	.
.	16b- 16g\	.	.	.	.	.	.	.	.	.	.	.	.
.	.	.	12aa\	.	.	.	.	.	.	.	.	.	.
8C/J	16b- 16g\	.	.	.	.	.	.	.	.	.	.	.	.
.	.	.	12bb-\J	.	.	.	.	.	.	.	.	.	.
.	16b-JJ 16g\	.	.	.	.	.	.	.	.	.	.	.	.
=11	=11	=11	=11	=11	=11	=11	=11	=11	=11	=11	=11	=11	=11
*	*	*	*	*	*	*ij	*	*ij	*	*	*	*	*
!	!	!	!	!	!LO:LB:g=original	!	!	!	!	!	!	!	!
8F\L	16aLL 16f\	.	2aa\	.	2A\	Chris-	2cc\	Chris-	2f/	2cc\	2a\	2ff\	.
.	16a 16f\	.	.	.	.	.	.	.	.	.	.	.	.
8F\	16a 16f\	.	.	.	.	.	.	.	.	.	.	.	.
.	16a 16f\	.	.	.	.	.	.	.	.	.	.	.	.
8F\	16a 16f\	.	.	.	.	.	.	.	.	.	.	.	.
.	16a 16f\	.	.	.	.	.	.	.	.	.	.	.	.
8F\J	16a 16f\	.	.	.	.	.	.	.	.	.	.	.	.
.	16aJJ 16f\	.	.	.	.	.	.	.	.	.	.	.	.
8F\L	16fLL 16A/	.	12cc\L	.	4A\	-te	4cc\	-te	2r	2r	2a\	2ff\	.
.	16f 16A/	.	.	.	.	.	.	.	.	.	.	.	.
.	.	.	12dd\	.	.	.	.	.	.	.	.	.	.
8F\	16f 16A/	.	.	.	.	.	.	.	.	.	.	.	.
.	.	.	12ee-\J	.	.	.	.	.	.	.	.	.	.
.	16f 16A/	.	.	.	.	.	.	.	.	.	.	.	.
8F\	16f 16A/	.	12ff\L	.	4A\	e-	4cc\	e-	.	.	.	.	.
.	16f 16A/	.	.	.	.	.	.	.	.	.	.	.	.
.	.	.	12gg\	.	.	.	.	.	.	.	.	.	.
8F\J	16f 16A/	.	.	.	.	.	.	.	.	.	.	.	.
.	.	.	12aa\J	.	.	.	.	.	.	.	.	.	.
.	16fJJ 16A/	.	.	.	.	.	.	.	.	.	.	.	.
=12	=12	=12	=12	=12	=12	=12	=12	=12	=12	=12	=12	=12	=12
!LO:TX:t=P:problem=prawdopodobnie przeoczona kreseczka tremolo	!	!	!	!	!	!	!	!	!	!LO:LB:g=original	!	!	!
2G\	16gLL 16c/	.	2gg\	.	2B-\	-lei-	2cc\	-lei-	2cc\	2cc\	2g\	2eeX\	.
.	16g 16c/	.	.	.	.	.	.	.	.	.	.	.	.
.	16g 16c/	.	.	.	.	.	.	.	.	.	.	.	.
.	16g 16c/	.	.	.	.	.	.	.	.	.	.	.	.
.	16g 16c/	.	.	.	.	.	.	.	.	.	.	.	.
.	16g 16c/	.	.	.	.	.	.	.	.	.	.	.	.
.	16g 16c/	.	.	.	.	.	.	.	.	.	.	.	.
.	16gJJ 16c/	.	.	.	.	.	.	.	.	.	.	.	.
8C/L	16b-LL 16g\	.	12cc\L	.	4G\	-son	4cc\	-son	2r	2r	2b-\	2gg\	.
*	*	*	*	*	*	*Xij	*	*Xij	*	*	*	*	*
.	16b- 16g\	.	.	.	.	.	.	.	.	.	.	.	.
.	.	.	12ee-\	.	.	.	.	.	.	.	.	.	.
8C/	16b- 16g\	.	.	.	.	.	.	.	.	.	.	.	.
.	.	.	12ff\J	.	.	.	.	.	.	.	.	.	.
.	16b- 16g\	.	.	.	.	.	.	.	.	.	.	.	.
8C/	16b- 16g\	.	12gg\L	.	4r	.	4r	.	.	.	.	.	.
.	16b- 16g\	.	.	.	.	.	.	.	.	.	.	.	.
.	.	.	12aa\	.	.	.	.	.	.	.	.	.	.
8C/J	16b- 16g\	.	.	.	.	.	.	.	.	.	.	.	.
.	.	.	12bb-\J	.	.	.	.	.	.	.	.	.	.
.	16b-JJ 16g\	.	.	.	.	.	.	.	.	.	.	.	.
*Xtremolo	*Xtremolo	*	*	*	*	*	*	*	*	*	*	*	*
=13	=13	=13	=13	=13	=13	=13	=13	=13	=13	=13	=13	=13	=13
4F\	4a 4f/	p	4aa\	p	4r	.	4r	.	1r	1r	4a\	4ff\	.
4r	4a/	.	4cc\	.	4A\	Chris-	8dd\L	Chris-	.	.	4r	4r	.
.	.	.	.	.	.	.	8cc\J	.	.	.	.	.	.
2r	4a/	.	4cc\	.	4A\	-te	4cc\	-te	.	.	2r	2r	.
.	4a/	.	4cc\	.	4A\	e-	4cc\	e-	.	.	.	.	.
=14	=14	=14	=14	=14	=14	=14	=14	=14	=14	=14	=14	=14	=14
!	!	!	!	!	!	!	!LO:LB:g=original	!	!	!	!	!	!
1r	4.b-\	.	4.dd\	.	4.B-\	-lei-	4.dd\	-lei-	1r	1r	1r	1r	.
.	16dd\LL	.	16ff\LL	.	16d\LL	.	16ff\LL	.	.	.	.	.	.
.	16cc\JJ	.	16ee-\JJ	.	16c\JJ	.	16een\JJ	.	.	.	.	.	.
.	4b-\	.	4dd\	.	4B-\	-son	4dd\	-son	.	.	.	.	.
.	4b-\	.	4dd\	.	4B-\	e-	4dd\	e-	.	.	.	.	.
=15	=15	=15	=15	=15	=15	=15	=15	=15	=15	=15	=15	=15	=15
1r	4b-\	.	4dd\	.	4B-\	-lei-	4dd\	-lei-	1r	1r	1r	1r	.
.	4a\	.	4cc\	.	4A\	-son	4cc\	-son	.	.	.	.	.
.	4r	.	4r	.	4r	.	4r	.	.	.	.	.	.
!	!	!	!	!LO:DY:a	!	!	!	!	!	!	!	!	!
.	4a\	f	4cc\	f	4A\	e-	4cc\	e-	.	.	.	.	.
=16	=16	=16	=16	=16	=16	=16	=16	=16	=16	=16	=16	=16	=16
*tremolo	*tremolo	*	*tremolo	*	*	*	*	*	*	*	*	*	*
!	!	!	!	!	!	!	!	!	!	!LO:SIC:v:s=4dd\	!	!	!
!	!	!	!	!	!	!	!	!	!LO:LB:g=original	!	!	!	!
!	!	!	!	!	!	!	!	!	!LO:SIC:v:s=4dd\	!	!	!	!
!	!	!	!LO:LB:g=original	!	!	!	!	!	!	!	!	!	!
8B-\L	16b-\LL	.	16dd\LL	.	2B-\	-lei-	2dd\	-lei-	4cc\	4cc\	2b-\	2dd\	f
.	16b-\	.	16dd\	.	.	.	.	.	.	.	.	.	.
8B-\	16b-\	.	16dd\	.	.	.	.	.	.	.	.	.	.
.	16b-\JJ	.	16dd\JJ	.	.	.	.	.	.	.	.	.	.
8B-\	16dd\LL	.	16bb-\LL	.	.	.	.	.	4r	4r	.	.	.
.	16dd\	.	16bb-\	.	.	.	.	.	.	.	.	.	.
8B-\J	16dd\	.	16bb-\	.	.	.	.	.	.	.	.	.	.
.	16dd\	.	16bb-\JJ	.	.	.	.	.	.	.	.	.	.
8c\L	16dd\	.	16gg\LL	.	2c\	.	2een\	.	4cc\	4cc\	2g\	2eeX\	.
.	16dd\	.	16gg\	.	.	.	.	.	.	.	.	.	.
8c\	16dd\	.	16gg\	.	.	.	.	.	.	.	.	.	.
.	16dd\JJ	.	16gg\JJ	.	.	.	.	.	.	.	.	.	.
8c\	16b-\LL	.	16een\LL	.	.	.	.	.	4cc\	4cc\	.	.	.
.	16b-\	.	16ee\	.	.	.	.	.	.	.	.	.	.
8c\J	16b-\	.	16ee\	.	.	.	.	.	.	.	.	.	.
.	16b-\JJ	.	16ee\JJ	.	.	.	.	.	.	.	.	.	.
*Xtremolo	*Xtremolo	*	*Xtremolo	*	*	*	*	*	*	*	*	*	*
=17	=17	=17	=17	=17	=17	=17	=17	=17	=17	=17	=17	=17	=17
!	!LO:TX:t=P:problem=takty 17-20 zapisane powtórką	!	!	!	!	!	!	!	!	!	!	!	!
4F\	4a 4f/	p	4ff\	p	4F\	-son	4ff\	-son	4f/	4cc\	4a\	4ff\	.
4r	4a/	.	4cc\	.	4A\	Chris-	4cc\	Chris-	4r	4r	4r	4r	.
2r	4a/	.	4cc\	.	4A\	-te	4cc\	-te	2r	2r	2r	2r	.
.	4a/	.	4cc\	.	4A\	e-	4cc\	e-	.	.	.	.	.
=18	=18	=18	=18	=18	=18	=18	=18	=18	=18	=18	=18	=18	=18
1r	4.b-\	.	4.dd\	.	4.B-\	-le-	4.dd\	-le-	1r	1r	1r	1r	.
.	16dd\LL	.	16ff\LL	.	16d\LL	-i-	16ff\LL	-i-	.	.	.	.	.
.	16cc\JJ	.	16ee-\JJ	.	16B-\JJ	.	16ee-\JJ	.	.	.	.	.	.
!	!	!	!	!	!	!	!LO:TX:t=P:problem=wysokość poprawiana	!	!	!	!	!	!
.	4b-\	.	4dd\	.	4B-\	-son	4dd\	-son	.	.	.	.	.
!	!	!	!	!	!	!	!LO:TX:t=P:problem=wysokość poprawiana	!	!	!	!	!	!
.	4b-\	.	4dd\	.	4B-\	e-	4dd\	e-	.	.	.	.	.
=19	=19	=19	=19	=19	=19	=19	=19	=19	=19	=19	=19	=19	=19
!	!	!	!	!	!LO:LB:g=original	!	!	!	!	!	!	!	!
1r	4b-\	.	4dd\	.	4B-\	-lei-	4dd\	-lei-	1r	1r	1r	1r	.
.	4a\	.	4cc\	.	4A\	-son	4cc\	-son	.	.	.	.	.
.	4r	.	4r	.	4r	.	4r	.	.	.	.	.	.
!	!	!	!	!LO:DY:a	!	!	!	!	!	!	!	!	!
.	4a\	f	4cc\	f	4A\	e-	4cc\	e-	.	.	.	.	.
=20	=20	=20	=20	=20	=20	=20	=20	=20	=20	=20	=20	=20	=20
*tremolo	*tremolo	*	*tremolo	*	*	*	*	*	*	*	*	*	*
!	!	!	!	!	!	!	!	!	!	!	!	!	!LO:DY:b:f=f
!	!	!	!	!	!	!	!	!	!	!LO:SIC:v:s=4dd\	!	!	!
!	!	!	!	!	!	!	!	!	!LO:SIC:v:s=4dd\	!	!	!	!
8B-\L	16b-\LL	.	16dd\LL	.	2B-\	-lei-	2dd\	-lei-	4cc\	4cc\	2b-\	2dd\	f
.	16b-\	.	16dd\	.	.	.	.	.	.	.	.	.	.
8B-\	16b-\	.	16dd\	.	.	.	.	.	.	.	.	.	.
.	16b-\JJ	.	16dd\JJ	.	.	.	.	.	.	.	.	.	.
8B-\	16dd\LL	.	16bb-\LL	.	.	.	.	.	4r	4r	.	.	.
.	16dd\	.	16bb-\	.	.	.	.	.	.	.	.	.	.
8B-\J	16dd\	.	16bb-\	.	.	.	.	.	.	.	.	.	.
.	16dd\	.	16bb-\JJ	.	.	.	.	.	.	.	.	.	.
8c\L	16dd\	.	16gg\LL	.	2c\	.	2een\	.	4cc\	4cc\	2g\	2eeX\	.
.	16dd\	.	16gg\	.	.	.	.	.	.	.	.	.	.
8c\	16dd\	.	16gg\	.	.	.	.	.	.	.	.	.	.
.	16dd\JJ	.	16gg\JJ	.	.	.	.	.	.	.	.	.	.
8c\	16b-\LL	.	16een\LL	.	.	.	.	.	4cc\	4cc\	.	.	.
.	16b-\	.	16ee\	.	.	.	.	.	.	.	.	.	.
8c\J	16b-\	.	16ee\	.	.	.	.	.	.	.	.	.	.
.	16b-\JJ	.	16ee\JJ	.	.	.	.	.	.	.	.	.	.
*	*	*	*Xtremolo	*	*	*	*	*	*	*	*	*	*
=21	=21	=21	=21	=21	=21	=21	=21	=21	=21	=21	=21	=21	=21
8F\L	16aLL 16f/	.	2ff\	.	4F\	-son	4ff\	-son	4f/	4cc\	4a\	4ff\	.
.	16a 16f/	.	.	.	.	.	.	.	.	.	.	.	.
8F\	16a 16f/	.	.	.	.	.	.	.	.	.	.	.	.
.	16a 16f/	.	.	.	.	.	.	.	.	.	.	.	.
8F\	16a 16f/	.	.	.	4r	.	4r	.	4r	4r	4r	4r	.
.	16a 16f/	.	.	.	.	.	.	.	.	.	.	.	.
8F\J	16a 16f/	.	.	.	.	.	.	.	.	.	.	.	.
.	16aJJ 16f/	.	.	.	.	.	.	.	.	.	.	.	.
8F\L	16aLL 16f/	.	16ff\LL	.	2r	.	2r	.	2r	2r	2r	2r	.
.	16a 16f/	.	16gg\	.	.	.	.	.	.	.	.	.	.
8F\	16a 16f/	.	16aa\	.	.	.	.	.	.	.	.	.	.
.	16a 16f/	.	16gg\JJ	.	.	.	.	.	.	.	.	.	.
8F\	16a 16f/	.	8ff\L	.	.	.	.	.	.	.	.	.	.
.	16a 16f/	.	.	.	.	.	.	.	.	.	.	.	.
8F\J	16a 16f/	.	8ff\J	.	.	.	.	.	.	.	.	.	.
.	16aJJ 16f/	.	.	.	.	.	.	.	.	.	.	.	.
=22	=22	=22	=22	=22	=22	=22	=22	=22	=22	=22	=22	=22	=22
!	!	!	!	!	!	!	!LO:TX:a:i:t=7	!	!	!	!	!	!
8En\L	16b-LL 16g/	.	8aa\L	.	1r	.	1r	.	1r	1r	1r	1r	.
.	16b- 16g/	.	.	.	.	.	.	.	.	.	.	.	.
8E\	16b- 16g/	.	8gg\	.	.	.	.	.	.	.	.	.	.
.	16b- 16g/	.	.	.	.	.	.	.	.	.	.	.	.
8E\	16b- 16g/	.	8ff#X\	.	.	.	.	.	.	.	.	.	.
.	16b- 16g/	.	.	.	.	.	.	.	.	.	.	.	.
8E\J	16b- 16g/	.	8gg\J	.	.	.	.	.	.	.	.	.	.
.	16b-JJ 16g/	.	.	.	.	.	.	.	.	.	.	.	.
8E\L	16b-LL 16g/	.	4gg\	.	.	.	.	.	.	.	.	.	.
.	16b- 16g/	.	.	.	.	.	.	.	.	.	.	.	.
8E\	16b- 16g/	.	.	.	.	.	.	.	.	.	.	.	.
.	16b- 16g/	.	.	.	.	.	.	.	.	.	.	.	.
8E\	16b- 16g/	.	8r	.	.	.	.	.	.	.	.	.	.
.	16b- 16g/	.	.	.	.	.	.	.	.	.	.	.	.
8E\J	16b- 16g/	.	8aa\	.	.	.	.	.	.	.	.	.	.
.	16b-JJ 16g/	.	.	.	.	.	.	.	.	.	.	.	.
=23	=23	=23	=23	=23	=23	=23	=23	=23	=23	=23	=23	=23	=23
8C/L	16ccLL 16en\	.	2bb-\	.	1r	.	1r	.	1r	1r	1r	1r	.
.	16cc 16e\	.	.	.	.	.	.	.	.	.	.	.	.
8C/	16cc 16e\	.	.	.	.	.	.	.	.	.	.	.	.
.	16cc 16e\	.	.	.	.	.	.	.	.	.	.	.	.
8C/	16cc 16e\	.	.	.	.	.	.	.	.	.	.	.	.
.	16cc 16e\	.	.	.	.	.	.	.	.	.	.	.	.
8C/J	16cc 16e\	.	.	.	.	.	.	.	.	.	.	.	.
.	16ccJJ 16e\	.	.	.	.	.	.	.	.	.	.	.	.
!LO:SIC:v:s=8En\L	!	!	!	!	!	!	!	!	!	!	!	!	!
8E-\L	16ccLL 16e\	.	8cc\L	.	.	.	.	.	.	.	.	.	.
.	16cc 16e\	.	.	.	.	.	.	.	.	.	.	.	.
!LO:SIC:v:s=8En\	!	!	!	!	!	!	!	!	!	!	!	!	!
8E-\	16cc 16e\	.	8een\	.	.	.	.	.	.	.	.	.	.
.	16cc 16e\	.	.	.	.	.	.	.	.	.	.	.	.
!LO:SIC:v:s=8En\	!	!	!	!	!	!	!	!	!	!	!	!	!
8E-\	16cc 16e\	.	8gg\	.	.	.	.	.	.	.	.	.	.
.	16cc 16e\	.	.	.	.	.	.	.	.	.	.	.	.
!LO:SIC:v:s=8En\J	!	!	!	!	!	!	!	!	!	!	!	!	!
8E-\J	16cc 16e\	.	8bb-\J	.	.	.	.	.	.	.	.	.	.
.	16ccJJ 16e\	.	.	.	.	.	.	.	.	.	.	.	.
*Xtremolo	*Xtremolo	*	*	*	*	*	*	*	*	*	*	*	*
=24	=24	=24	=24	=24	=24	=24	=24	=24	=24	=24	=24	=24	=24
!	!	!	!LO:LB:g=original	!	!	!	!	!	!	!	!	!	!
!	!LO:SIC:v:s=4een\	!	!	!	!	!	!	!	!	!	!	!	!
4F\	4ee-\	.	4bb-\	.	1r	.	1r	.	1r	1r	2r	2r	.
4F\	4ff\	.	4aa\	.	.	.	.	.	.	.	.	.	.
4F\	4A/	p	4c/	p	.	.	.	.	.	.	4a\	4cc\	p
4r	4A/	.	4c/	.	.	.	.	.	.	.	4a\	4cc\	.
=25	=25	=25	=25	=25	=25	=25	=25	=25	=25	=25	=25	=25	=25
!	!	!	!	!	!	!	!	!	!	!	!	!LO:LB:g=original	!
4r	4.B-/	.	4.d/	.	1r	.	1r	.	1r	1r	4.b-\	4.dd\	.
4F\	.	.	.	.	.	.	.	.	.	.	.	.	.
.	8c/	.	8en/	.	.	.	.	.	.	.	8cc\	8eeX\	.
4F\	8en/L	.	8g/L	.	.	.	.	.	.	.	8eeX\L	8gg\L	.
.	8d/	.	8f/	.	.	.	.	.	.	.	8dd\	8ff\	.
4F\	8c/	.	8e/	.	.	.	.	.	.	.	8cc\	8ee\	.
.	8B-/J	.	8d/J	.	.	.	.	.	.	.	8b-\J	8dd\J	.
=26	=26	=26	=26	=26	=26	=26	=26	=26	=26	=26	=26	=26	=26
!	!	!	!	!	!	!	!	!	!	!	!LO:LB:g=original	!	!
4F\	8B-/L	.	8d/L	.	1r	.	1r	.	1r	1r	8b-\L	8dd\L	.
.	8A/J	.	8c/J	.	.	.	.	.	.	.	8a\J	8cc\J	.
4F\	2A/	.	2c/	.	.	.	.	.	.	.	2a\	2cc\	.
4A\	.	.	.	.	.	.	.	.	.	.	.	.	.
4F\	8f/L	.	8a\L	.	.	.	.	.	.	.	8a\L	8a\L	.
.	8a/J	.	8cc\J	.	.	.	.	.	.	.	8b-\J	8cc\J	.
=27	=27	=27	=27	=27	=27	=27	=27	=27	=27	=27	=27	=27	=27
4G\	4g/	.	4b-\	.	1r	.	1r	.	1r	1r	4g\	4b-\	.
4C/	4b-/	.	4een\	.	.	.	.	.	.	.	4g\	4eeX\	.
4F\	4a/	.	4ff\	.	.	.	.	.	.	.	4a\	4ff\	.
4Bn\	4f/	.	4a/	.	.	.	.	.	.	.	4a\	4a\	.
=28	=28	=28	=28	=28	=28	=28	=28	=28	=28	=28	=28	=28	=28
4c\	4en/	.	4g/	.	4r	.	1r	.	1r	1r	4eX/	4g/	.
4r	4r	.	4r	.	4c\	Chris-	.	.	.	.	4r	4r	.
2r	2r	.	2r	.	4c\	-te	.	.	.	.	2r	2r	.
.	.	.	.	.	4c\	e-	.	.	.	.	.	.	.
=29	=29	=29	=29	=29	=29	=29	=29	=29	=29	=29	=29	=29	=29
4C/	4g/	.	2b-\	.	1c	-lei-	(4gg\	Chri-	2cc\	2cc\	2g\	2b-\	.
4r	4c/	.	.	.	.	.	4een\)	.	.	.	.	.	.
2r	4f/	.	4a\	.	.	.	4ff\	-ste	4f/	4cc\	4f\	4a\	.
.	4a/	.	4ff\	.	.	.	4cc\	e-	4f/	4cc\	4a\	4ff\	.
=30	=30	=30	=30	=30	=30	=30	=30	=30	=30	=30	=30	=30	=30
4C/	4b-\	.	4gg\	.	1c	.	2b-\	-lei-	2cc\	2cc\	4b-\	4gg\	.
4r	4g\	.	4een\	.	.	.	.	.	.	.	4b-\	4eeX\	.
2r	4a\	.	4ff\	.	.	.	4a\	-son	4f/	4cc\	4a\	4ff\	.
.	4f\	.	4cc\	.	.	.	4ff\	X-	4f/	4cc\	4a\	4cc\	.
=31	=31	=31	=31	=31	=31	=31	=31	=31	=31	=31	=31	=31	=31
!	!	!	!	!	!	!	!	!	!LO:TX:t=P:problem=takty 31-32 zapisane powtórką	!LO:TX:t=P:problem=takty 31-32 zapisane powtórką	!	!	!
4C/	4g/	.	4b-\	.	1c	.	4gg\	-ste	2cc\	2cc\	4g\	4b-\	.
4r	4c/	.	4b-\	.	.	.	4een\	X-	.	.	4g\	4b-\	.
2r	4f/	.	4a\	.	.	.	4ff\	-ste	4f/	4cc\	4f\	4a\	.
.	4a/	.	4ff\	.	.	.	4cc\	e-	4f/	4cc\	4a\	4ff\	.
=32	=32	=32	=32	=32	=32	=32	=32	=32	=32	=32	=32	=32	=32
!	!	!	!	!	!	!	!LO:LB:g=original	!	!	!	!	!	!
4C/	4b-\	.	4gg\	.	2c\	-son	2b-\	-lei-	2cc\	2cc\	4b-\	4gg\	.
4r	4g\	.	4een\	.	.	.	.	.	.	.	4b-\	4eeX\	.
2r	4a\	.	4ff\	.	4c\	Chris-	4a\	-son	4f/	4cc\	4a\	4ff\	.
.	4f\	.	4cc\	.	4A\	-te	4cc\	X-	4f/	4cc\	4a\	4cc\	.
=33	=33	=33	=33	=33	=33	=33	=33	=33	=33	=33	=33	=33	=33
!	!	!	!LO:LB:g=original	!	!	!	!	!	!	!	!	!	!
4B-X\	4b-\	.	4dd\	.	4B-\	.	4dd\	-ste	1r	1r	4b-\	4dd\	.
4r	4dd\	.	4ff\	.	4d\	Chri-	4ff\	X-	.	.	4r	4r	.
2r	4cc\	.	4ee-\	.	4c\	-ste	4ee-\	-ste	.	.	2r	2r	.
.	4b-\	.	4dd\	.	4B-\	e-	4dd\	e-	.	.	.	.	.
=34	=34	=34	=34	=34	=34	=34	=34	=34	=34	=34	=34	=34	=34
!	!	!	!	!	!	!	!	!	!	!	!	!LO:LB:g=original	!
!	!LO:LB:g=original	!	!	!	!	!	!	!	!	!	!	!	!
4r	4b-\	.	4dd\	.	4B-\	-lei-	4dd\	-lei-	1r	1r	2r	2r	.
4F\	4a\	.	4cc\	.	4A\	-son	4cc\	-son	.	.	.	.	.
4A\	8a\L	f	8a/L	f	4r	.	2r	.	.	.	4a\	4ff\	f
.	8cc\	.	8cc/	.	.	.	.	.	.	.	.	.	.
4F\	8ff\	.	8ff/	.	4A\	Chri-	.	.	.	.	4cc\	4aa\	.
.	8aa\J	.	8aa/J	.	.	.	.	.	.	.	.	.	.
=35	=35	=35	=35	=35	=35	=35	=35	=35	=35	=35	=35	=35	=35
4C/	4g/	.	4b-\	p	4G\	.	(4b-\	X-	1r	1r	4g\	4b-\	.
4r	4b-/	p	4dd\	.	4B-\	.	4dd\)	.	.	.	4r	4r	.
2r	4a/	.	4cc\	.	4A\	.	4cc\	-ste	.	.	2r	2r	.
.	4g/	.	4b-\	.	4G\	.	4b-\	e-	.	.	.	.	.
=36	=36	=36	=36	=36	=36	=36	=36	=36	=36	=36	=36	=36	=36
!LO:LB:g=original	!	!	!	!	!	!	!	!	!	!	!LO:LB:g=original	!	!
4r	4g/	.	4b-\	.	4G\	.	4b-\	-lei-	1r	1r	2r	2r	.
4F\	4f/	.	4a\	.	4F\	-ste	4a\	-son	.	.	.	.	.
4A\	8f/L	f	8f/L	f	4r	.	4r	.	.	.	4a\	4cc\	.
.	8a/	.	8a/	.	.	.	.	.	.	.	.	.	.
4F\	8cc/	.	8cc/	.	4A\	e-	4ff\	e-	.	.	4a\	4ff\	.
.	8ff/J	.	8ff/J	.	.	.	.	.	.	.	.	.	.
=37	=37	=37	=37	=37	=37	=37	=37	=37	=37	=37	=37	=37	=37
*	*tremolo	*	*tremolo	*	*	*	*	*	*	*	*	*	*
4B-\	16dd\LL	.	16ggLL 16b-\	.	2B-\	-lei-	2gg\	-lei-	2b-\	2b-\	2b-\	2ff\	.
.	16dd\	.	16gg 16b-\	.	.	.	.	.	.	.	.	.	.
.	16dd\	.	16gg 16b-\	.	.	.	.	.	.	.	.	.	.
.	16dd\	.	16gg 16b-\	.	.	.	.	.	.	.	.	.	.
4G\	16dd\	.	16gg 16b-\	.	.	.	.	.	.	.	.	.	.
.	16dd\	.	16gg 16b-\	.	.	.	.	.	.	.	.	.	.
.	16dd\	.	16gg 16b-\	.	.	.	.	.	.	.	.	.	.
.	16dd\JJ	.	16ggJJ 16b-\	.	.	.	.	.	.	.	.	.	.
!	!	!	!LO:SIC:v:n=1:s=16eenLL	!	!	!	!	!	!	!	!	!	!
4c\	16cc\LL	.	16ee-LL 16b-\	.	2c\	.	2ee-\	.	2cc\	2cc\	2cc\	2eeX\	.
!	!	!	!LO:SIC:v:n=1:s=16een	!	!	!	!	!	!	!	!	!	!
.	16cc\	.	16ee- 16b-\	.	.	.	.	.	.	.	.	.	.
!	!	!	!LO:SIC:v:n=1:s=16een	!	!	!	!	!	!	!	!	!	!
.	16cc\	.	16ee- 16b-\	.	.	.	.	.	.	.	.	.	.
!	!	!	!LO:SIC:v:n=1:s=16een	!	!	!	!	!	!	!	!	!	!
.	16cc\	.	16ee- 16b-\	.	.	.	.	.	.	.	.	.	.
!	!	!	!LO:SIC:v:n=1:s=16een	!	!	!	!	!	!	!	!	!	!
4C/	16cc\	.	16ee- 16b-\	.	.	.	.	.	.	.	.	.	.
!	!	!	!LO:SIC:v:n=1:s=16een	!	!	!	!	!	!	!	!	!	!
.	16cc\	.	16ee- 16b-\	.	.	.	.	.	.	.	.	.	.
!	!	!	!LO:SIC:v:n=1:s=16een	!	!	!	!	!	!	!	!	!	!
.	16cc\	.	16ee- 16b-\	.	.	.	.	.	.	.	.	.	.
!	!	!	!LO:SIC:v:n=1:s=16eenJJ	!	!	!	!	!	!	!	!	!	!
.	16cc\JJ	.	16ee-JJ 16b-\	.	.	.	.	.	.	.	.	.	.
*	*Xtremolo	*	*Xtremolo	*	*	*	*	*	*	*	*	*	*
=38	=38	=38	=38	=38	=38	=38	=38	=38	=38	=38	=38	=38	=38
4F\	4a 4f/	.	4ff 4cc\	.	4F\	-son	4ff\	-son	4f/	4cc\	4a\	4ff\	.
4r	4r	.	4r	.	4c\	Chris-	4r	.	4r	4r	4r	4r	.
2r	2r	.	2r	.	4c\	-te	2r	.	2r	2r	2r	2r	.
.	.	.	.	.	4c\	e-	.	.	.	.	.	.	.
=39	=39	=39	=39	=39	=39	=39	=39	=39	=39	=39	=39	=39	=39
!	!	!	!	!LO:DY:a	!	!	!	!	!	!	!LO:TX:t=P:problem=takty 39-48 zapisane powtórką	!	!
4C/	4g/	.	2b-\	p	1c	-lei-	(4gg\	X-	2cc\	2cc\	2g\	2b-\	p
4r	4c/	.	.	.	.	.	4een\)	.	.	.	.	.	.
2r	4f/	.	4a\	.	.	.	4ff\	-ste	4f/	4cc\	4f\	4a\	.
.	4a/	.	4ff\	.	.	.	4cc\	e-	4f/	4cc\	4a\	4ff\	.
=40	=40	=40	=40	=40	=40	=40	=40	=40	=40	=40	=40	=40	=40
4C/	4b-\	.	4gg\	.	1c	.	2b-\	-lei-	2cc\	2cc\	4b-\	4gg\	.
4r	4g\	.	4een\	.	.	.	.	.	.	.	4b-\	4eeX\	.
2r	4a/	.	4ff\	.	.	.	4a\	-son	4f/	4cc\	4a\	4ff\	.
.	4f/	.	4cc\	.	.	.	4ff\	X-	4f/	4cc\	4a\	4cc\	.
=41	=41	=41	=41	=41	=41	=41	=41	=41	=41	=41	=41	=41	=41
!	!	!	!	!	!	!	!	!	!LO:TX:t=P:problem=takty 41-42 zapisane powtórką	!LO:TX:t=P:problem=takty 41-42 zapisane powtórką	!	!	!
4C/	4g/	.	4b-\	.	1c	.	4gg\	-ste	2cc\	2cc\	4g\	4b-\	.
4r	4c/	.	4b-\	.	.	.	4een\	X-	.	.	4g\	4b-\	.
2r	4f/	.	4a\	.	.	.	4ff\	-ste	4f/	4cc\	4f\	4a\	.
.	4a/	.	4ff\	.	.	.	4cc\	e-	4f/	4cc\	4a\	4ff\	.
=42	=42	=42	=42	=42	=42	=42	=42	=42	=42	=42	=42	=42	=42
!	!	!	!LO:LB:g=original	!	!	!	!	!	!	!	!	!	!
4C/	4b-/	.	4gg\	.	2c\	.	2b-\	-lei-	2cc\	2cc\	4b-\	4gg\	.
4r	4g/	.	4een\	.	.	.	.	.	.	.	4b-\	4eeX\	.
2r	4a/	.	4ff\	.	4c\	son	4a\	.	4f/	4cc\	4a\	4ff\	.
!	!	!	!LO:TX:a:i:t=c	!	!	!	!	!	!	!	!	!	!
.	4f/	.	4cc\	.	4A\	Chri-	4cc\	-son	4f/	4cc\	4a\	4cc\	.
=43	=43	=43	=43	=43	=43	=43	=43	=43	=43	=43	=43	=43	=43
!	!	!	!	!	!LO:LB:g=original	!	!	!	!	!	!	!	!
4B-\	4b-/	.	4dd\	.	4B-\	-ste	4dd\	X-	1r	1r	4b-\	4dd\	.
4r	4dd/	.	4ff\	.	4d\	Chri-	4ff\	-ste	.	.	4r	4r	.
2r	4cc/	.	4ee-\	.	4c\	-ste	4ee-\	e-	.	.	2r	2r	.
.	4b-/	.	4dd\	.	4B-\	e-	4dd\	.	.	.	.	.	.
=44	=44	=44	=44	=44	=44	=44	=44	=44	=44	=44	=44	=44	=44
!	!	!	!	!	!	!	!	!	!	!	!	!LO:LB:g=original	!
!	!	!	!	!	!	!	!LO:LB:g=original	!	!	!	!	!	!
!	!LO:LB:g=original	!	!	!	!	!	!	!	!	!	!	!	!
4r	4b-/	.	4dd\	.	4B-\	-lei-	4dd\	-lei-	1r	1r	2r	2r	.
4F\	4a/	.	4cc\	.	4A\	-son	4cc\	-son	.	.	.	.	.
!	!	!	!	!	!	!	!	!	!	!	!	!	!LO:DY:b:f=f
4A\	8a\L	f	8a/L	f	4r	.	2r	.	.	.	4a\	4ff\	f
.	8cc\	.	8cc/	.	.	.	.	.	.	.	.	.	.
4F\	8ff\	.	8ff/	.	4A\	Chri-	.	.	.	.	4cc\	4aa\	.
.	8aa\J	.	8aa/J	.	.	.	.	.	.	.	.	.	.
=45	=45	=45	=45	=45	=45	=45	=45	=45	=45	=45	=45	=45	=45
4C/	4g/	p	4b-\	.	4G\	.	(4b-\	X-	1r	1r	4g\	4b-\	.
4r	4b-/	.	4dd\	p	4B-\	.	4dd\)	.	.	.	4r	4r	.
2r	4a/	.	4cc\	.	4A\	.	4cc\	ste	.	.	2r	2r	.
.	4g/	.	4b-\	.	4G\	.	4b-\	e-	.	.	.	.	.
=46	=46	=46	=46	=46	=46	=46	=46	=46	=46	=46	=46	=46	=46
!	!	!	!	!	!	!	!	!	!	!	!LO:LB:g=original	!	!
4r	4g/	.	4b-\	.	4G\	ste	4b-\	-lei-	1r	1r	2r	2r	.
4F\	4f/	.	4a\	.	4F\	e	4a\	-son	.	.	.	.	.
4A\	8f/L	f	8f/L	f	4r	.	4r	.	.	.	4a\	4cc\	.
.	8a/	.	8a/	.	.	.	.	.	.	.	.	.	.
4F\	8cc/	.	8cc/	.	4A\	e-	4ff\	e-	.	.	4a\	4ff\	.
.	8ff/J	.	8ff/J	.	.	.	.	.	.	.	.	.	.
=47	=47	=47	=47	=47	=47	=47	=47	=47	=47	=47	=47	=47	=47
*	*tremolo	*	*tremolo	*	*	*	*	*	*	*	*	*	*
!LO:LB:g=original	!	!	!	!	!	!	!	!	!	!	!	!	!
4B-\	16dd\LL	.	16ggLL 16b-\	.	2B-\	-lei-	2gg\	-lei-	2b-\	2b-\	2b-\	2ff\	.
.	16dd\	.	16gg 16b-\	.	.	.	.	.	.	.	.	.	.
.	16dd\	.	16gg 16b-\	.	.	.	.	.	.	.	.	.	.
.	16dd\	.	16gg 16b-\	.	.	.	.	.	.	.	.	.	.
4G\	16dd\	.	16gg 16b-\	.	.	.	.	.	.	.	.	.	.
.	16dd\	.	16gg 16b-\	.	.	.	.	.	.	.	.	.	.
.	16dd\	.	16gg 16b-\	.	.	.	.	.	.	.	.	.	.
.	16dd\JJ	.	16ggJJ 16b-\	.	.	.	.	.	.	.	.	.	.
!	!	!	!LO:SIC:v:n=1:s=16eenLL	!	!	!	!	!	!	!	!	!	!
4c\	16cc\LL	.	16ee-LL 16b-\	.	2c\	.	2ee-\	.	2cc\	2cc\	2cc\	2eeX\	.
!	!	!	!LO:SIC:v:n=1:s=16een	!	!	!	!	!	!	!	!	!	!
.	16cc\	.	16ee- 16b-\	.	.	.	.	.	.	.	.	.	.
!	!	!	!LO:SIC:v:n=1:s=16een	!	!	!	!	!	!	!	!	!	!
.	16cc\	.	16ee- 16b-\	.	.	.	.	.	.	.	.	.	.
!	!	!	!LO:SIC:v:n=1:s=16een	!	!	!	!	!	!	!	!	!	!
.	16cc\	.	16ee- 16b-\	.	.	.	.	.	.	.	.	.	.
!	!	!	!LO:SIC:v:n=1:s=16een	!	!	!	!	!	!	!	!	!	!
4C/	16cc\	.	16ee- 16b-\	.	.	.	.	.	.	.	.	.	.
!	!	!	!LO:SIC:v:n=1:s=16een	!	!	!	!	!	!	!	!	!	!
.	16cc\	.	16ee- 16b-\	.	.	.	.	.	.	.	.	.	.
!	!	!	!LO:SIC:v:n=1:s=16een	!	!	!	!	!	!	!	!	!	!
.	16cc\	.	16ee- 16b-\	.	.	.	.	.	.	.	.	.	.
!	!	!	!LO:SIC:v:n=1:s=16eenJJ	!	!	!	!	!	!	!	!	!	!
.	16cc\JJ	.	16ee-JJ 16b-\	.	.	.	.	.	.	.	.	.	.
*	*Xtremolo	*	*Xtremolo	*	*	*	*	*	*	*	*	*	*
=48	=48	=48	=48	=48	=48	=48	=48	=48	=48	=48	=48	=48	=48
4D/	4.a 4.f/	.	4.ff 4.cc\	.	4d\	-son	4ff\	-son	4f/	4cc\	4a\	4ff\	.
4r	.	.	.	.	4r	.	4r	.	4r	4r	4r	4r	.
.	8cc/	.	8aa\	.	.	.	.	.	.	.	.	.	.
2r	8b-\L	.	8gg\L	.	2r	.	2r	.	4r	4r	2r	2r	.
.	8a\	.	8ff\	.	.	.	.	.	.	.	.	.	.
.	8g\	.	8ee-\	.	.	.	.	.	4f/	4cc\	.	.	.
.	8a\J	.	8ff\J	.	.	.	.	.	.	.	.	.	.
=49	=49	=49	=49	=49	=49	=49	=49	=49	=49	=49	=49	=49	=49
*	*tremolo	*	*tremolo	*	*	*	*	*	*	*	*	*	*
!	!	!	!	!	!	!	!	!	!	!LO:LB:g=original	!	!	!
!	!	!	!	!	!	!	!	!	!LO:LB:g=original	!	!	!	!
4B-\	16b-\LL	.	16dd\LL	.	2B-\	e-	2dd\	e-	2r	2r	2b-\	2dd\	.
.	16b-\	.	16dd\	.	.	.	.	.	.	.	.	.	.
.	16b-\	.	16dd\	.	.	.	.	.	.	.	.	.	.
.	16b-\	.	16dd\	.	.	.	.	.	.	.	.	.	.
4G\	16b-\	.	16dd\	.	.	.	.	.	.	.	.	.	.
.	16b-\	.	16dd\	.	.	.	.	.	.	.	.	.	.
.	16b-\	.	16dd\	.	.	.	.	.	.	.	.	.	.
.	16b-\JJ	.	16dd\JJ	.	.	.	.	.	.	.	.	.	.
4c\	16g/LL	.	16een\LL	.	2c\	-lei-	2een\	-lei-	2cc\	2cc\	2g\	2eeX\	.
.	16g/	.	16ee\	.	.	.	.	.	.	.	.	.	.
.	16g/	.	16ee\	.	.	.	.	.	.	.	.	.	.
.	16g/	.	16ee\	.	.	.	.	.	.	.	.	.	.
4c\	16g/	.	16ee\	.	.	.	.	.	.	.	.	.	.
.	16g/	.	16ee\	.	.	.	.	.	.	.	.	.	.
.	16g/	.	16ee\	.	.	.	.	.	.	.	.	.	.
.	16g/JJ	.	16ee\JJ	.	.	.	.	.	.	.	.	.	.
*	*Xtremolo	*	*Xtremolo	*	*	*	*	*	*	*	*	*	*
=50	=50	=50	=50	=50	=50	=50	=50	=50	=50	=50	=50	=50	=50
!	!	!	!LO:LB:g=original	!	!	!	!	!	!	!	!	!	!
4d\	4.a/	.	4.ff\	.	4d\	-son	4ff\	-son	4f/	4cc\	4a\	4ff\	.
4r	.	.	.	.	4r	.	4r	.	4r	4r	4r	4r	.
.	8cc/	.	8aa\	.	.	.	.	.	.	.	.	.	.
2r	8b-/L	.	8gg\L	.	2r	.	2r	.	4r	4r	2r	2r	.
.	8a/	.	8ff\	.	.	.	.	.	.	.	.	.	.
.	8g/	.	8ee-\	.	.	.	.	.	4f/	4cc\	.	.	.
.	8a/J	.	8ff\J	.	.	.	.	.	.	.	.	.	.
=51	=51	=51	=51	=51	=51	=51	=51	=51	=51	=51	=51	=51	=51
*	*tremolo	*	*tremolo	*	*	*	*	*	*	*	*	*	*
!	!	!	!	!	!LO:LB:g=original	!	!	!	!	!	!	!	!
4B-\	16b-\LL	.	16dd\LL	.	2B-\	e-	2gg\	e-	2r	2r	2b-\	2dd\	.
.	16b-\	.	16dd\	.	.	.	.	.	.	.	.	.	.
.	16b-\	.	16dd\	.	.	.	.	.	.	.	.	.	.
.	16b-\	.	16dd\	.	.	.	.	.	.	.	.	.	.
4G\	16b-\	.	16dd\	.	.	.	.	.	.	.	.	.	.
.	16b-\	.	16dd\	.	.	.	.	.	.	.	.	.	.
.	16b-\	.	16dd\	.	.	.	.	.	.	.	.	.	.
.	16b-\JJ	.	16dd\JJ	.	.	.	.	.	.	.	.	.	.
!	!	!	!	!	!	!	!LO:SIC:v:s=2een\	!	!	!	!	!	!
4c\	16g/LL	.	16een\LL	.	2c\	-lei-	2ee-\	-lei-	2cc\	2cc\	2g\	2eeX\	.
.	16g/	.	16ee\	.	.	.	.	.	.	.	.	.	.
.	16g/	.	16ee\	.	.	.	.	.	.	.	.	.	.
.	16g/	.	16ee\	.	.	.	.	.	.	.	.	.	.
4C/	16g/	.	16ee\	.	.	.	.	.	.	.	.	.	.
.	16g/	.	16ee\	.	.	.	.	.	.	.	.	.	.
.	16g/	.	16ee\	.	.	.	.	.	.	.	.	.	.
.	16g/JJ	.	16ee\JJ	.	.	.	.	.	.	.	.	.	.
*	*Xtremolo	*	*Xtremolo	*	*	*	*	*	*	*	*	*	*
=52	=52	=52	=52	=52	=52	=52	=52	=52	=52	=52	=52	=52	=52
4F\	4a 4f/	.	4ff 4a/	.	4F\	-son	4ff\	-son	4f/	4cc\	4a\	4ff\	.
4F\	4f 4A/	.	4f 4A/	.	4r	.	4r	.	4f/	4cc\	4r	4r	.
4F\	4f 4A/	.	4f 4A/	.	2r	.	2r	.	4f/	4cc\	2r	2r	.
4r	4r	.	4r	.	.	.	.	.	4r	4r	.	.	.
=53	=53	=53	=53	=53	=53	=53	=53	=53	=53	=53	=53	=53	=53
!	!LO:LB:g=original	!	!	!	!	!	!	!	!	!	!	!	!
4C/	4.g/	p	4.b-/	p	1r	.	1r	.	4cc\	4cc\	4.gg\	4.bb-\	p
4r	.	.	.	.	.	.	.	.	4r	4r	.	.	.
.	8f/	.	8a/	.	.	.	.	.	.	.	8ff\	8aa\	.
!	!LO:SIC:v:s=4en/	!	!	!	!	!	!	!	!	!	!	!	!
2r	4e-/	.	4g/	.	.	.	.	.	2r	2r	4eeX\	4gg\	.
!	!LO:SIC:v:s=4en/	!	!	!	!	!	!	!	!	!	!	!	!
.	4e-/	.	4g/	.	.	.	.	.	.	.	4ee\	4gg\	.
=54	=54	=54	=54	=54	=54	=54	=54	=54	=54	=54	=54	=54	=54
!	!	!	!	!	!	!	!	!	!	!	!	!LO:LB:g=original	!
!	!	!	!	!	!	!	!	!	!	!	!LO:SIC:v:s=4ee\	!	!
4r	8g/L	f	8b-/L	f	1r	.	1r	.	2cc\	2cc\	4ee-\	4gg\	.
.	8cc/	.	8een/	.	.	.	.	.	.	.	.	.	.
4C/	8een/	.	8gg/	.	.	.	.	.	.	.	4r	4r	.
.	8dd/J	.	8ff/J	.	.	.	.	.	.	.	.	.	.
4En/	8cc/L	.	8ee/L	.	.	.	.	.	4cc\	4cc\	2r	2r	.
.	8b-/	.	8dd/	.	.	.	.	.	.	.	.	.	.
4C/	8a/	.	8cc/	.	.	.	.	.	4cc\	4cc\	.	.	.
.	8g/J	.	8b-/J	.	.	.	.	.	.	.	.	.	.
=55	=55	=55	=55	=55	=55	=55	=55	=55	=55	=55	=55	=55	=55
4F\	4.c/	p	4.a/	p	1r	.	1r	.	4f/	4cc\	4.cc\	4.aa\	.
4r	.	.	.	.	.	.	.	.	4r	4r	.	.	.
.	8B-/	.	8g/	.	.	.	.	.	.	.	8b-\	8gg\	.
2r	4A/	.	4f/	.	.	.	.	.	2r	2r	4a\	4ff\	.
.	4A/	.	4f/	.	.	.	.	.	.	.	4a\	4ff\	.
=56	=56	=56	=56	=56	=56	=56	=56	=56	=56	=56	=56	=56	=56
!	!	!	!	!	!	!	!	!	!	!	!LO:LB:g=original	!	!
4r	8f/L	f	8f/L	f	1r	.	1r	.	2f/	2cc\	4a\	4ff\	.
.	8a/	.	8a/	.	.	.	.	.	.	.	.	.	.
4F\	8dd/	.	8ff/	.	.	.	.	.	.	.	4r	4r	.
.	8cc/J	.	8ee-/J	.	.	.	.	.	.	.	.	.	.
4A\	8b-/L	.	8dd/L	.	.	.	.	.	4f/	4cc\	2r	2r	.
.	8a/	.	8cc/	.	.	.	.	.	.	.	.	.	.
4F\	8g/	.	8b-/	.	.	.	.	.	4f/	4cc\	.	.	.
.	8f/J	.	8a/J	.	.	.	.	.	.	.	.	.	.
=57	=57	=57	=57	=57	=57	=57	=57	=57	=57	=57	=57	=57	=57
!LO:LB:g=original	!	!	!LO:LB:g=original	!	!	!	!	!	!	!	!	!	!
4B-\	4e-/	p	4g/	p	1r	.	1r	.	1r	1r	2b-\	2gg\	.
4G\	4b-\	.	4dd\	.	.	.	.	.	.	.	.	.	.
4c\	4a\	.	4cc\	.	.	.	.	.	.	.	2cc\	2eeX\	.
4C/	4B-/	.	4en/	.	.	.	.	.	.	.	.	.	.
=58	=58	=58	=58	=58	=58	=58	=58	=58	=58	=58	=58	=58	=58
4F\	4A/	.	4f 4A/	.	1r	.	1r	.	1r	1r	4a\	4ff\	.
4r	4f/	.	4a/	.	.	.	.	.	.	.	4ff\	4aa\	.
2r	4e-/	.	4g/	.	.	.	.	.	.	.	4eeX\	4gg\	.
.	4f/	.	4a/	.	.	.	.	.	.	.	4ff\	4aa\	.
=59	=59	=59	=59	=59	=59	=59	=59	=59	=59	=59	=59	=59	=59
4C/	4.g/	.	4.b-/	.	1r	.	1r	.	4cc\	4cc\	4.gg\	4.bb-\	p
4r	.	.	.	.	.	.	.	.	4r	4r	.	.	.
.	8f/	.	8a/	.	.	.	.	.	.	.	8ff\	8aa\	.
!	!LO:SIC:v:s=4en	!	!	!	!	!	!	!	!	!	!	!	!
2r	4e-/	.	4g/	.	.	.	.	.	2r	2r	4eeX\	4gg\	.
!	!LO:SIC:v:s=4en	!	!	!	!	!	!	!	!	!	!	!	!
.	4e-/	.	4g/	.	.	.	.	.	.	.	4ee\	4gg\	.
=60	=60	=60	=60	=60	=60	=60	=60	=60	=60	=60	=60	=60	=60
!	!	!	!	!	!	!	!	!	!	!	!LO:SIC:v:s=4ee\	!	!
4r	8g\L	f	8b-\L	f	1r	.	1r	.	2cc\	2cc\	4ee-\	4gg\	.
.	8cc\	.	8een\	.	.	.	.	.	.	.	.	.	.
4C/	8een\	.	8gg\	.	.	.	.	.	.	.	4r	4r	.
.	8dd\J	.	8ff\J	.	.	.	.	.	.	.	.	.	.
4En/	8cc\L	.	8een\L	.	.	.	.	.	4cc\	4cc\	2r	2r	.
.	8b-\	.	8dd\	.	.	.	.	.	.	.	.	.	.
4C/	8a\	.	8cc\	.	.	.	.	.	4cc\	4cc\	.	.	.
.	8g\J	.	8b-\J	.	.	.	.	.	.	.	.	.	.
=61	=61	=61	=61	=61	=61	=61	=61	=61	=61	=61	=61	=61	=61
!	!LO:LB:g=original	!	!	!	!	!	!	!	!	!	!	!	!
4F\	4.c/	p	4.a/	p	1r	.	1r	.	4f/	4cc\	4.cc\	4.aa\	.
4r	.	.	.	.	.	.	.	.	4r	4r	.	.	.
.	8B-/	.	8g/	.	.	.	.	.	.	.	8b-\	8gg\	.
2r	4A/	.	4f/	.	.	.	.	.	2r	2r	4a\	4ff\	.
.	4A/	.	4f/	.	.	.	.	.	.	.	4a\	4ff\	.
=62	=62	=62	=62	=62	=62	=62	=62	=62	=62	=62	=62	=62	=62
4r	8A/L	f	8a/L	f	1r	.	1r	.	2f/	2cc\	4a\	4ff\	.
.	8a/	.	8b-/	.	.	.	.	.	.	.	.	.	.
4F\	8dd/	.	8ff/	.	.	.	.	.	.	.	4r	4r	.
.	8cc/J	.	8ee-/J	.	.	.	.	.	.	.	.	.	.
4A\	8b-\L	.	8dd/L	.	.	.	.	.	4f/	4cc\	2r	2r	.
.	8a\	.	8cc/	.	.	.	.	.	.	.	.	.	.
4F\	8g\	.	8b-/	.	.	.	.	.	4f/	4cc\	.	.	.
.	8f\J	.	8a/J	.	.	.	.	.	.	.	.	.	.
=63	=63	=63	=63	=63	=63	=63	=63	=63	=63	=63	=63	=63	=63
*tremolo	*	*	*	*	*	*	*	*	*	*	*	*	*
!	!	!	!	!	!	!	!	!	!	!	!	!LO:LB:g=original	!
8B-\L	4d/	.	8a/L	.	1r	.	1r	.	1r	1r	2b-\	2gg\	.
8B-\	.	.	8g/	.	.	.	.	.	.	.	.	.	.
8B-\	8.g/L	.	8b-/	.	.	.	.	.	.	.	.	.	.
8B-\J	.	.	8dd/J	.	.	.	.	.	.	.	.	.	.
.	16b-/Jk	.	.	.	.	.	.	.	.	.	.	.	.
8c\L	8b-/L	.	8dd/L	.	.	.	.	.	.	.	2cc\	2eeX\	.
8c\	8a/	.	8cc/	.	.	.	.	.	.	.	.	.	.
8c\	8a/	.	8cc/	.	.	.	.	.	.	.	.	.	.
8c\J	8B-/J	.	8en/J	.	.	.	.	.	.	.	.	.	.
=64	=64	=64	=64	=64	=64	=64	=64	=64	=64	=64	=64	=64	=64
!	!	!	!LO:LB:g=original	!	!	!	!	!	!	!	!	!	!
!	!	!LO:DY:b:t=ff.	!	!	!	!	!	!	!	!	!	!	!
8F\L	2A/	ff	2f 2A/	.	2F\	Ki-	2f/	Ky-	2r	2r	2a\	2ff\	.
8F\	.	.	.	.	.	.	.	.	.	.	.	.	.
8F\	.	.	.	.	.	.	.	.	.	.	.	.	.
8F\J	.	.	.	.	.	.	.	.	.	.	.	.	.
8F\L	8g/L	.	8b-\L	p	8G\L	-ri-	8b-\L	-ri-	4r	4r	4a\	4ff\	.
8F\	8f/	.	8a\	.	8F\	.	8a\	.	.	.	.	.	.
8F\	8b-/	.	8dd\	f	8B-\	-e-	8dd\	-e-	4cc\	4cc\	4a\	4ff\	.
8F\J	8a/J	.	8cc\J	.	8A\J	.	8cc\J	.	.	.	.	.	.
=65	=65	=65	=65	=65	=65	=65	=65	=65	=65	=65	=65	=65	=65
!	!	!	!	!	!	!	!	!	!LO:LB:g=original	!	!	!	!
8F\L	4.a/	.	4.cc\	.	4.A\	-lei-	4.cc\	-lei-	4f/	4cc\	4a\	4ff\	.
8F\	.	.	.	.	.	.	.	.	.	.	.	.	.
8F\	.	.	.	.	.	.	.	.	4r	4r	4r	4r	.
8F\J	8g/	.	8b-\	.	8G\	.	8b-\	.	.	.	.	.	.
8A\L	4f/	.	4a/	.	4F\	-son	4a\	-son	2r	2r	2r	2r	.
8A\	.	.	.	.	.	.	.	.	.	.	.	.	.
8A\	8A/L	.	8f/L	.	8A\L	e-	8f\L	e-	.	.	.	.	.
8A\J	8c/J	.	8a/J	.	8c\J	.	8a\J	.	.	.	.	.	.
=66	=66	=66	=66	=66	=66	=66	=66	=66	=66	=66	=66	=66	=66
!	!	!	!	!	!	!	!	!	!	!	!LO:LB:g=original	!	!
!	!	!	!	!	!	!	!	!	!	!LO:LB:g=original	!	!	!
!	!	!	!	!	!	!	!LO:LB:g=original	!	!	!	!	!	!
8B-\L	4.B-/	.	4.g/	.	4.B-\	-lei-	4.g\	-lei-	1r	1r	1r	1r	.
8B-\	.	.	.	.	.	.	.	.	.	.	.	.	.
8B-\	.	.	.	.	.	.	.	.	.	.	.	.	.
8B-\J	8d/	.	8b-/	.	8d\	.	8b-\	.	.	.	.	.	.
8c\L	4.G/	.	4.e-/	.	4.G\	-e-	4.e-\	-e-	.	.	.	.	.
8c\	.	.	.	.	.	.	.	.	.	.	.	.	.
8c\	.	.	.	.	.	.	.	.	.	.	.	.	.
8c\J	8B-/	.	8g/	.	8B-\	.	8g\	.	.	.	.	.	.
=67	=67	=67	=67	=67	=67	=67	=67	=67	=67	=67	=67	=67	=67
!	!LO:TX:t=P:problem=mixed beam	!	!LO:TX:t=P:problem=mixed beam	!	!	!	!	!	!	!	!	!	!
8F\L	8A/L	.	8f/L	.	4A\	-son	4f/	-son	1r	1r	1r	1r	.
8F\	8a\	.	8cc\	.	.	.	.	.	.	.	.	.	.
8F\	8a\	.	8ff\	.	4r	.	4r	.	.	.	.	.	.
8F\J	8a\J	.	8cc\J	.	.	.	.	.	.	.	.	.	.
8A\L	8a/L	.	8cc\L	.	4r	.	4r	.	.	.	.	.	.
8A\	8g/	.	8b-\	.	.	.	.	.	.	.	.	.	.
8A\	8g/	.	8b-\	.	4c\	e-	4a\	e-	.	.	.	.	.
8A\J	8f/J	.	8a\J	.	.	.	.	.	.	.	.	.	.
=68	=68	=68	=68	=68	=68	=68	=68	=68	=68	=68	=68	=68	=68
!LO:LB:g=original	!	!	!	!	!	!	!	!	!	!	!	!	!
8B-\L	4.B-/	.	4.g/	.	4.B-\	-lei-	4.g\	-lei-	1r	1r	1r	1r	.
8B-\	.	.	.	.	.	.	.	.	.	.	.	.	.
8B-\	.	.	.	.	.	.	.	.	.	.	.	.	.
8B-\J	8d/	.	8b-/	.	8d\	.	8b-\	.	.	.	.	.	.
!	!LO:LB:g=original	!	!	!	!	!	!	!	!	!	!	!	!
8c\L	4.G/	.	4.e-/	.	4.G\	.	4.e-\	-e-	.	.	.	.	.
8c\	.	.	.	.	.	.	.	.	.	.	.	.	.
8c\	.	.	.	.	.	.	.	.	.	.	.	.	.
8c\J	8B-/	.	8g/	.	8B-\	.	8g\	.	.	.	.	.	.
*Xtremolo	*	*	*	*	*	*	*	*	*	*	*	*	*
=69	=69	=69	=69	=69	=69	=69	=69	=69	=69	=69	=69	=69	=69
!	!	!	!	!	!LO:LB:g=original	!	!	!	!	!	!	!	!
4F\	4A/	.	4f/	.	4A\	-son	4f/	-son	1r	1r	1r	1r	.
8F\L	8f/L	.	8f/L	.	4r	.	4r	.	.	.	.	.	.
8G\J	8g/J	.	8g/J	.	.	.	.	.	.	.	.	.	.
8F\L	8f/L	.	8f/L	.	2r	.	2r	.	.	.	.	.	.
8e-X\	8e-X/	.	8e-X/	.	.	.	.	.	.	.	.	.	.
8d\	8d/	.	8d/	.	.	.	.	.	.	.	.	.	.
8c\J	8c/J	.	8c/J	.	.	.	.	.	.	.	.	.	.
=70	=70	=70	=70	=70	=70	=70	=70	=70	=70	=70	=70	=70	=70
!LO:TX:t=P:problem=nadmiarowy takt w Cor 1 i 2	!LO:TX:t=P:problem=nadmiarowy takt w Cor 1 i 2	!	!LO:TX:t=P:problem=nadmiarowy takt w Cor 1 i 2	!	!LO:TX:t=P:problem=nadmiarowy takt w Cor 1 i 2	!	!LO:TX:t=P:problem=nadmiarowy takt w Cor 1 i 2	!	!	!	!LO:TX:t=P:problem=nadmiarowy takt w Cor 1 i 2	!LO:TX:t=P:problem=nadmiarowy takt w Cor 1 i 2	!
1ryy	1ryy	.	1ryy	.	1ryy	.	1ryy	.	1r	1r	1ryy	1ryy	.
=71	=71	=71	=71	=71	=71	=71	=71	=71	=71	=71	=71	=71	=71
*tremolo	*	*	*	*	*	*	*	*	*	*	*	*	*
8B-\L	2d 2B-/	.	2b- 2d/	.	2D/	Ki-	2b-\	Ky-	2d/	2b-\	2d/	2b-\	.
8B-\	.	.	.	.	.	.	.	.	.	.	.	.	.
8B-\	.	.	.	.	.	.	.	.	.	.	.	.	.
8B-\J	.	.	.	.	.	.	.	.	.	.	.	.	.
8B-\L	8cc\L	.	8ee-\L	.	8c\L	-ri-	8ee-X\L	-ri-	2r	2r	8cc\L	8ee-\L	.
8B-\	8b-\	.	8dd\	.	8B-\J	.	8dd\J	.	.	.	8b-\	8dd\	.
!	!	!	!	!	!LO:SIC:v:s=8e-X\L	!	!	!	!	!	!	!	!
!	!	!	!	!	!LO:TX:t=P:problem=nieprezycyjny zapis	!	!	!	!	!	!	!	!
8B-\	8ee-\	.	8gg\	.	8c-X\L	-e-	8gg\L	-e-	.	.	8ee-\	8gg\	.
8B-\J	8dd\J	.	8ff\J	.	8d\J	.	8ff\J	.	.	.	8dd\J	8ff\J	.
=72	=72	=72	=72	=72	=72	=72	=72	=72	=72	=72	=72	=72	=72
!	!	!	!LO:LB:g=original	!	!	!	!	!	!	!	!	!	!
8B-\L	4.dd\	.	4.ff\	.	4.d\	-lei-	4.ff\	-lei-	4.dd\	4.ff\	4.dd\	4.ff\	.
8B-\	.	.	.	.	.	.	.	.	.	.	.	.	.
8B-\	.	.	.	.	.	.	.	.	.	.	.	.	.
8B-\J	8cc\	.	8ee-\	.	8c\	.	8ee-\	.	8cc\	8ee-\	8cc\	8ee-\	.
*Xtremolo	*	*	*	*	*	*	*	*	*	*	*	*	*
8B-\L	4b-\	.	4dd\	.	4B-\	-son	4dd\	-son	4b-\	4dd\	4b-\	4dd\	.
8B-\	.	.	.	.	.	.	.	.	.	.	.	.	.
8D\	8d/L	.	8b-\L	.	8D/L	e-	8b-\L	e-	4r	4r	8d/L	8b-\L	.
8D\J	8f/J	.	8dd\J	.	8F/J	.	8dd\J	.	.	.	8f/J	8dd\J	.
=73	=73	=73	=73	=73	=73	=73	=73	=73	=73	=73	=73	=73	=73
*tremolo	*	*	*	*	*	*	*	*	*	*	*	*	*
8E-\L	4.e-/	.	4.cc\	.	4.E-\	-lei-	4.cc\	-lei-	2cc\	2ee-\	4.e-/	4.cc\	.
8E-\	.	.	.	.	.	.	.	.	.	.	.	.	.
8E-\	.	.	.	.	.	.	.	.	.	.	.	.	.
8E-\J	8g/	.	8ee-\	.	8G\	.	8ee-\	.	.	.	8f/	8ee-\	.
8F\L	4.c/	.	4.a\	.	4.C/	.	4.a\	-e-	2f/	2cc\	4.c/	4.a\	.
8F\	.	.	.	.	.	.	.	.	.	.	.	.	.
8F\	.	.	.	.	.	.	.	.	.	.	.	.	.
8F\J	8e-/	.	8cc\	.	8E-/	.	8cc\	.	.	.	8e-/	8cc\	.
*Xtremolo	*	*	*	*	*	*	*	*	*	*	*	*	*
=74	=74	=74	=74	=74	=74	=74	=74	=74	=74	=74	=74	=74	=74
!	!LO:TX:t=P:problem=mixed beam	!	!	!	!	!	!	!	!	!	!	!	!
4B-\	8d/L	.	8b-\L	.	4D/	-son	4b-\	-son	2d/	2b-\	4d/	4b-\	.
.	8dd\	.	8ff\	.	.	.	.	.	.	.	.	.	.
4r	8dd\	.	8bb-\	.	4r	.	4r	.	.	.	4r	4r	.
.	8dd\J	.	8ff\J	.	.	.	.	.	.	.	.	.	.
2r	8dd\L	.	8ff\L	.	2r	.	2r	.	2r	2r	2r	2r	.
.	8cc\	.	8ee-\	.	.	.	.	.	.	.	.	.	.
.	8cc\	.	8ee-\	.	.	.	.	.	.	.	.	.	.
.	8b-\J	.	8dd\J	.	.	.	.	.	.	.	.	.	.
=75	=75	=75	=75	=75	=75	=75	=75	=75	=75	=75	=75	=75	=75
*tremolo	*	*	*	*	*	*	*	*	*	*	*	*	*
8E-\L	4a/	.	4cc\	.	1r	.	1r	.	2r	2r	4e-/	4cc\	.
8E-\	.	.	.	.	.	.	.	.	.	.	.	.	.
8E-\	8ee-\L	.	8gg\L	.	.	.	.	.	.	.	8ee-\L	8gg\L	.
8E-\J	8dd\J	.	8ee-\J	.	.	.	.	.	.	.	8dd\J	8ff\J	.
*Xtremolo	*	*	*	*	*	*	*	*	*	*	*	*	*
8E-\L	4cc\	.	4ee-\	.	.	.	.	.	4cc\	4ee-\	4cc\	4ee-\	.
8E-\	.	.	.	.	.	.	.	.	.	.	.	.	.
8En\	4b-\	.	4dd\	.	.	.	.	.	4b-\	4dd\	4b-\	4dd\	.
8E\J	.	.	.	.	.	.	.	.	.	.	.	.	.
=76	=76	=76	=76	=76	=76	=76	=76	=76	=76	=76	=76	=76	=76
!	!	!	!	!	!	!	!	!	!	!	!	!LO:LB:g=original	!
4F\	4a/	.	4cc\	.	1r	.	4r	.	4f/	4cc\	4a/	4cc\	.
4r	4r	.	4r	.	.	.	4ff\	Chri-	4r	4r	4r	4r	.
2r	2r	.	2r	.	.	.	4ff\	-ste	2r	2r	2r	2r	.
.	.	.	.	.	.	.	4ff\	e-	.	.	.	.	.
=77	=77	=77	=77	=77	=77	=77	=77	=77	=77	=77	=77	=77	=77
!	!LO:LB:g=original	!	!	!	!	!	!	!	!	!	!	!	!
!	!	!	!	!	!	!	!LO:LB:g=original	!	!	!	!	!	!
4F\	2cc\	p	2ee-\	p	(4c\	Chri-	1ff	-lei	2f/	2cc\	1r	1r	.
4r	.	.	.	.	4A\)	.	.	.	.	.	.	.	.
2r	4b-\	.	4dd\	.	4B-\	-ste	.	.	2b-\	2dd\	.	.	.
!	!	!	!	!	!LO:TX:a:i:t=f	!	!	!	!	!	!	!	!
.	4dd\	.	4bb-\	.	4F\	e-	.	.	.	.	.	.	.
=78	=78	=78	=78	=78	=78	=78	=78	=78	=78	=78	=78	=78	=78
4F\	4ee-\	.	4ccc\	.	2E-\	-lei-	1ff	.	2cc\	2ee-\	1r	1r	.
4r	4cc\	.	4aa\	.	.	.	.	.	.	.	.	.	.
2r	4dd\	.	4bb-\	.	4D\	-son	.	.	2b-\	2dd\	.	.	.
.	4dd\	.	4ff\	.	4B-\	Chri-	.	.	.	.	.	.	.
=79	=79	=79	=79	=79	=79	=79	=79	=79	=79	=79	=79	=79	=79
!	!	!	!	!	!LO:LB:g=original	!	!	!	!	!	!	!	!
!	!	!	!LO:LB:g=original	!	!	!	!	!	!	!	!	!	!
4F\	4cc\	.	4ee-\	.	4c\	-ste	1ff	.	2f/	2cc\	1r	1r	.
4r	4cc\	.	4ee-\	.	4A\	Chri-	.	.	.	.	.	.	.
2r	4b-\	.	4dd\	.	4B-\	-ste	.	.	2b-\	2dd\	.	.	.
.	4dd\	.	4bb-\	.	4F\	e-	.	.	.	.	.	.	.
=80	=80	=80	=80	=80	=80	=80	=80	=80	=80	=80	=80	=80	=80
!LO:LB:g=original	!	!	!	!	!	!	!	!	!	!	!	!	!
4E-X\	4ee-\	.	4ccc\	.	2E-\	-lei-	2ff\	.	2cc\	2ee-\	1r	1r	.
4r	4cc\	.	4aa\	.	.	.	.	.	.	.	.	.	.
2r	4dd\	.	4bb-\	.	4D\	-son	4ff\	.	2b-\	2dd\	.	.	.
.	4dd\	.	4ff\	.	4d\	Chri-	4ff\	Chris-	.	.	.	.	.
=81	=81	=81	=81	=81	=81	=81	=81	=81	=81	=81	=81	=81	=81
4r	4ee-\	.	4gg\	.	4e-\	-ste	4gg\	-te	1r	1r	1r	1r	.
4B-\	4gg\	.	4bb-\	.	4g\	Chri-	4bb-\	X-	.	.	.	.	.
4d\	4ff\	.	4aa\	.	4f\	-ste	4aa\	-ste	.	.	.	.	.
4B-\	4ee-\	.	4gg\	.	4e-\	e-	4gg\	e-	.	.	.	.	.
=82	=82	=82	=82	=82	=82	=82	=82	=82	=82	=82	=82	=82	=82
4F\	4dd\	.	4ff\	.	4e-\	-lei-	4gg\	-lei-	4dd\	4ff\	4dd\	4ff\	.
4r	4r	.	4r	.	4d\	-son	4ff\	-son	4dd\	4ff\	4dd\	4ff\	.
2r	2r	.	2r	.	4r	.	4r	.	4cc\	4ee-\	4cc\	4ee-\	.
.	.	.	.	.	4d\	Chri-	4ff\	X-	4b-\	4dd\	4b-\	4dd\	.
=83	=83	=83	=83	=83	=83	=83	=83	=83	=83	=83	=83	=83	=83
!	!	!	!	!	!	!	!	!	!LO:LB:g=original	!	!	!	!
4r	4cc\	.	4ee-\	.	4c\	-ste	4ee-\	-ste	4f/	4cc\	4a\	4cc\	.
4B-\	4ee-\	.	4gg\	.	4e-\	Chri-	4gg\	X-	4r	4r	4r	4r	.
4d\	4dd\	.	4ff\	.	4d\	-ste	4ff\	-ste	2r	2r	2r	2r	.
4B-\	4cc\	.	4ee-\	.	4c\	e-	4ee-\	e-	.	.	.	.	.
=84	=84	=84	=84	=84	=84	=84	=84	=84	=84	=84	=84	=84	=84
*tremolo	*	*	*	*	*	*	*	*	*	*	*	*	*
!	!	!	!	!	!	!	!	!	!	!	!LO:LB:g=original	!	!
!	!	!	!	!	!	!	!	!	!	!LO:LB:g=original	!	!	!
8E-\L	4b-\	.	4dd\	.	4c\	-lei-	4ee-\	-lei-	4b-\	4dd\	4f/	4dd\	.
8E-\	.	.	.	.	.	.	.	.	.	.	.	.	.
8E-\	4r	.	4r	.	4B-\	-son	4dd\	-son	4b-\	4dd\	4f/	4dd\	.
8E-\J	.	.	.	.	.	.	.	.	.	.	.	.	.
8F\L	2r	.	2r	.	2r	.	4r	.	4f/	4cc\	4e-/	4cc\	.
8F\	.	.	.	.	.	.	.	.	.	.	.	.	.
8F\	.	.	.	.	.	.	4dd\	e-	4d/	4b-\	4d/	4b-\	.
8F\J	.	.	.	.	.	.	.	.	.	.	.	.	.
*Xtremolo	*	*	*	*	*	*	*	*	*	*	*	*	*
=85	=85	=85	=85	=85	=85	=85	=85	=85	=85	=85	=85	=85	=85
*	*tremolo	*	*tremolo	*	*	*	*	*	*	*	*	*	*
4B-\	16e-/LL	.	16g/LL	f	2G\	e-	(2ee-\	-lei-	2cc\	2ee-\	2e-/	2cc\	.
.	16e-/	.	16g/	.	.	.	.	.	.	.	.	.	.
.	16e-/	.	16g/	.	.	.	.	.	.	.	.	.	.
.	16e-/JJ	.	16g/JJ	.	.	.	.	.	.	.	.	.	.
4r	16g/LL	.	16ee-\LL	.	.	.	.	.	.	.	.	.	.
.	16g/	.	16ee-\	.	.	.	.	.	.	.	.	.	.
.	16g/	.	16ee-\	.	.	.	.	.	.	.	.	.	.
.	16g/	.	16ee-\JJ	.	.	.	.	.	.	.	.	.	.
2r	16g/	.	16cc\LL	.	2A\	-lei-	2cc\)	.	2f/	2cc\	2f/	2a\	.
.	16g/	.	16cc\	.	.	.	.	.	.	.	.	.	.
.	16g/	.	16cc\	.	.	.	.	.	.	.	.	.	.
.	16g/JJ	.	16cc\JJ	.	.	.	.	.	.	.	.	.	.
.	16e-/LL	.	16a/LL	.	.	.	.	.	.	.	.	.	.
.	16e-/	.	16a/	.	.	.	.	.	.	.	.	.	.
.	16e-/	.	16a/	.	.	.	.	.	.	.	.	.	.
.	16e-/JJ	.	16a/JJ	.	.	.	.	.	.	.	.	.	.
*	*Xtremolo	*	*Xtremolo	*	*	*	*	*	*	*	*	*	*
=86	=86	=86	=86	=86	=86	=86	=86	=86	=86	=86	=86	=86	=86
!	!	!	!	!	!LO:LB:g=original	!	!	!	!	!	!	!	!
4F\	4d/	.	4b-/	.	4B-\	-son	4dd\	-son	4d/	4b-\	4d/	4b-\	.
4r	4r	.	4r	.	4r	.	4ff\	X-	4r	4r	4r	4r	.
2r	2r	.	2r	.	2r	.	4ff\	-ste	2r	2r	2r	2r	.
.	.	.	.	.	.	.	4ff\	e-	.	.	.	.	.
=87	=87	=87	=87	=87	=87	=87	=87	=87	=87	=87	=87	=87	=87
!	!	!	!	!	!	!	!	!	!LO:TX:t=P:problem=takty 87-96 zapisane powtórką	!LO:TX:t=P:problem=takty 87-96 zapisane powtórką	!	!	!
!	!	!	!LO:LB:g=original	!	!	!	!	!	!	!	!	!	!
!	!LO:LB:g=original	!	!	!	!	!	!	!	!	!	!	!	!
4F\	2cc\	.	2ee-\	.	(4c\	Chri-	1ff	-lei	2f/	2cc\	1r	1r	.
4r	.	.	.	.	4A\)	.	.	.	.	.	.	.	.
2r	4b-\	.	4dd\	.	4B-\	-ste	.	.	2b-\	2dd\	.	.	.
.	4dd\	.	4bb-\	.	4F\	e-	.	.	.	.	.	.	.
=88	=88	=88	=88	=88	=88	=88	=88	=88	=88	=88	=88	=88	=88
4F\	4ee-\	.	4ccc\	.	2E-\	-lei-	1ff	.	2cc\	2ee-\	1r	1r	.
4r	4cc\	.	4aa\	.	.	.	.	.	.	.	.	.	.
2r	4dd\	.	4bb-\	.	4D\	-son	.	.	2b-\	2dd\	.	.	.
.	4dd\	.	4ff\	.	4B-\	Chri-	.	.	.	.	.	.	.
=89	=89	=89	=89	=89	=89	=89	=89	=89	=89	=89	=89	=89	=89
4F\	4cc\	.	4ee-\	.	4c\	-ste	1ff	.	2f/	2cc\	1r	1r	.
4r	4cc\	.	4ee-\	.	4A\	Chri-	.	.	.	.	.	.	.
2r	4b-\	.	4dd\	.	4B-\	-ste	.	.	2b-\	2dd\	.	.	.
.	4dd\	.	4bb-\	.	4F\	e-	.	.	.	.	.	.	.
=90	=90	=90	=90	=90	=90	=90	=90	=90	=90	=90	=90	=90	=90
4E-X\	4ee-\	.	4ccc\	.	2E-\	-lei-	2ff\	.	2cc\	2ee-\	1r	1r	.
4r	4cc\	.	4aa\	.	.	.	.	.	.	.	.	.	.
2r	4dd\	.	4bb-\	.	4D\	-son	4ff\	.	2b-\	2dd\	.	.	.
.	4dd\	.	4ff\	.	4d\	Chri-	4ff\	Chri-	.	.	.	.	.
=91	=91	=91	=91	=91	=91	=91	=91	=91	=91	=91	=91	=91	=91
!	!	!	!	!	!	!	!LO:LB:g=original	!	!	!	!	!	!
4r	4ee-\	.	4gg\	.	4e-\	-ste	4gg\	-ste	1r	1r	1r	1r	.
4B-\	4gg\	.	4bb-\	.	4g\	Chri-	4bb-\	X-	.	.	.	.	.
4d\	4ff\	.	4aa\	.	4f\	-ste	4aa\	-ste	.	.	.	.	.
4B-\	4ee-\	.	4gg\	.	4e-\	e-	4gg\	e-	.	.	.	.	.
=92	=92	=92	=92	=92	=92	=92	=92	=92	=92	=92	=92	=92	=92
!LO:LB:g=original	!	!	!	!	!	!	!	!	!	!	!	!	!
4F\	4dd\	.	4ff\	.	4e-\	-lei-	4gg\	-lei-	4dd\	4ff\	4dd\	4ff\	.
4r	4r	.	4r	.	4d\	-son	4ff\	-son	4dd\	4ff\	4dd\	4ff\	.
2r	2r	.	2r	.	4r	.	4r	.	4cc\	4ee-\	4cc\	4ee-\	.
.	.	.	.	.	4d\	Chri-	4ff\	X-	4b-\	4dd\	4b-\	4dd\	.
=93	=93	=93	=93	=93	=93	=93	=93	=93	=93	=93	=93	=93	=93
!LO:TX:t=P:problem=brakujący takt?	!	!	!	!	!	!	!	!	!	!	!	!	!
!	!	!	!	!	!LO:LB:g=original	!	!	!	!	!	!	!	!
1ryy	4cc\	.	4ee-\	.	4c\	-ste	4ee-\	-ste	4f/	4cc\	4a\	4cc\	.
.	4ee-\	.	4gg\	.	4e-\	Chri-	4gg\	X-	4r	4r	4r	4r	.
.	4dd\	.	4ff\	.	4d\	-ste	4ff\	-ste	2r	2r	2r	2r	.
.	4cc\	.	4ee-\	.	4c\	e-	4ee-\	e-	.	.	.	.	.
=94	=94	=94	=94	=94	=94	=94	=94	=94	=94	=94	=94	=94	=94
!	!	!	!	!	!	!	!	!	!	!LO:LB:g=original	!	!	!
4r	4b-\	.	4dd\	.	4c\	-lei-	4ee-\	-lei-	4b-\	4dd\	4f/	4dd\	.
4B-\	4r	.	4r	.	4B-\	-son	4dd\	-son	4b-\	4dd\	4f/	4dd\	.
4d\	2r	.	2r	.	2r	.	4r	.	4f/	4cc\	4e-/	4cc\	.
4B-\	.	.	.	.	.	.	4dd\	e-	4d/	4b-\	4d/	4b-\	.
=95	=95	=95	=95	=95	=95	=95	=95	=95	=95	=95	=95	=95	=95
*tremolo	*tremolo	*	*tremolo	*	*	*	*	*	*	*	*	*	*
8E-\L	16e-/LL	.	16g/LL	f	2G\	e-	2ee-\	-lei-	2cc\	2ee-\	2e-/	2cc\	.
.	16e-/	.	16g/	.	.	.	.	.	.	.	.	.	.
8E-\	16e-/	.	16g/	.	.	.	.	.	.	.	.	.	.
.	16e-/JJ	.	16g/JJ	.	.	.	.	.	.	.	.	.	.
8E-\	16g/LL	.	16ee-\LL	.	.	.	.	.	.	.	.	.	.
.	16g/	.	16ee-\	.	.	.	.	.	.	.	.	.	.
8E-\J	16g/	.	16ee-\	.	.	.	.	.	.	.	.	.	.
.	16g/	.	16ee-\JJ	.	.	.	.	.	.	.	.	.	.
8F\L	16g/	.	16cc\LL	.	2A\	-lei-	2cc\	.	2f/	2cc\	2f/	2a\	.
.	16g/	.	16cc\	.	.	.	.	.	.	.	.	.	.
8F\	16g/	.	16cc\	.	.	.	.	.	.	.	.	.	.
.	16g/JJ	.	16cc\JJ	.	.	.	.	.	.	.	.	.	.
8F\	16e-/LL	.	16a/LL	.	.	.	.	.	.	.	.	.	.
.	16e-/	.	16a/	.	.	.	.	.	.	.	.	.	.
8F\J	16e-/	.	16a/	.	.	.	.	.	.	.	.	.	.
.	16e-/JJ	.	16a/JJ	.	.	.	.	.	.	.	.	.	.
*Xtremolo	*Xtremolo	*	*Xtremolo	*	*	*	*	*	*	*	*	*	*
=96	=96	=96	=96	=96	=96	=96	=96	=96	=96	=96	=96	=96	=96
!	!LO:TX:t=P:problem=mixed beam	!	!LO:TX:t=P:problem=mixed beam	!	!	!	!	!	!	!	!	!	!
!	!	!	!	!	!	!	!	!	!	!	!	!LO:LB:g=original	!
!	!LO:LB:g=original	!	!	!	!	!	!	!	!	!	!	!	!
4B-\	8d/L	.	8b-/L	.	4B-\	-son	4dd\	-son	4d/	4b-\	4d/	4b-\	.
.	8dd\	.	8ff\	.	.	.	.	.	.	.	.	.	.
4r	8cc#X\	.	8een\	.	4r	.	4r	.	4r	4r	4r	4r	.
.	8dd\J	.	8ff\J	.	.	.	.	.	.	.	.	.	.
2r	8ff\L	.	8gg\L	.	2r	.	2r	.	2r	2r	2r	2r	.
.	8dd\	.	8ff\	.	.	.	.	.	.	.	.	.	.
.	8cc#\	.	8ee\	.	.	.	.	.	.	.	.	.	.
.	8b-\J	.	8dd\J	.	.	.	.	.	.	.	.	.	.
=97	=97	=97	=97	=97	=97	=97	=97	=97	=97	=97	=97	=97	=97
*tremolo	*tremolo	*	*tremolo	*	*	*ij	*	*	*	*	*	*	*
!	!	!	!	!	!	!	!LO:TX:t=P:problem=takty 96-97 zapisane powtórką	!	!	!	!	!	!
8E-\L	16e-/LL	.	16cc\LL	.	2G\	e-	2ee-\	-lei-	2cc\	2ee-\	2e-/	2cc\	.
.	16e-/	.	16cc\	.	.	.	.	.	.	.	.	.	.
8E-\	16e-/	.	16cc\	.	.	.	.	.	.	.	.	.	.
.	16e-/JJ	.	16cc\JJ	.	.	.	.	.	.	.	.	.	.
8E-\	16g/LL	.	16ee-X\LL	.	.	.	.	.	.	.	.	.	.
.	16g/	.	16ee-\	.	.	.	.	.	.	.	.	.	.
8E-\J	16g/	.	16ee-\	.	.	.	.	.	.	.	.	.	.
.	16g/JJ	.	16ee-\JJ	.	.	.	.	.	.	.	.	.	.
8F\L	16c/LL	.	16a/LL	.	2A\	-lei-	2cc\	.	2f/	2cc\	2f/	2a\	.
.	16c/	.	16a/	.	.	.	.	.	.	.	.	.	.
8F\	16c/	.	16a/	.	.	.	.	.	.	.	.	.	.
.	16c/JJ	.	16a/JJ	.	.	.	.	.	.	.	.	.	.
8F\	16e-/LL	.	16cc\LL	.	.	.	.	.	.	.	.	.	.
.	16e-/	.	16cc\	.	.	.	.	.	.	.	.	.	.
8F\J	16e-/	.	16cc\	.	.	.	.	.	.	.	.	.	.
.	16e-/JJ	.	16cc\JJ	.	.	.	.	.	.	.	.	.	.
*Xtremolo	*Xtremolo	*	*Xtremolo	*	*	*	*	*	*	*	*	*	*
=98	=98	=98	=98	=98	=98	=98	=98	=98	=98	=98	=98	=98	=98
!	!LO:TX:t=P:problem=mixed beam	!	!	!	!	!	!	!	!	!	!	!	!
4G\	8d/L	.	8b-/L	.	4B-\	-son	4dd\	-son	4d/	4b-\	4d/	4b-\	.
*	*	*	*	*	*	*Xij	*	*	*	*	*	*	*
.	8dd\	.	8ff\	.	.	.	.	.	.	.	.	.	.
4r	8dd\	.	8bb-\	.	4r	.	4r	.	4r	4r	4r	4r	.
.	8dd\J	.	8ff\J	.	.	.	.	.	.	.	.	.	.
2r	8dd\L	.	8ff\L	.	2r	.	2r	.	2r	2r	2r	2r	.
.	8cc\	.	8ee-\	.	.	.	.	.	.	.	.	.	.
.	8cc\	.	8ee-\	.	.	.	.	.	.	.	.	.	.
.	8b-\J	.	8dd\J	.	.	.	.	.	.	.	.	.	.
=99	=99	=99	=99	=99	=99	=99	=99	=99	=99	=99	=99	=99	=99
*tremolo	*tremolo	*	*tremolo	*	*	*	*	*	*	*	*	*	*
!	!	!	!	!	!	!	!	!	!	!	!LO:LB:g=original	!	!
8E-\L	16e-/LL	.	16cc\LL	.	2E-\	e-	2gg\	e-	2cc\	2ee-\	2ee-\	2gg\	.
.	16e-/	.	16cc\	.	.	.	.	.	.	.	.	.	.
8E-\	16e-/	.	16cc\	.	.	.	.	.	.	.	.	.	.
.	16e-/JJ	.	16cc\JJ	.	.	.	.	.	.	.	.	.	.
8E-\	16g/LL	.	16ee-\LL	.	.	.	.	.	.	.	.	.	.
.	16g/	.	16ee-\	.	.	.	.	.	.	.	.	.	.
8E-\J	16g/	.	16ee-\	.	.	.	.	.	.	.	.	.	.
.	16g/JJ	.	16ee-\JJ	.	.	.	.	.	.	.	.	.	.
8F\L	16c/LL	.	16a/LL	.	2F\	-lei-	2ee-\	-lei-	2f/	2cc\	2cc\	2ee-\	.
.	16c/	.	16a/	.	.	.	.	.	.	.	.	.	.
8F\	16c/	.	16a/	.	.	.	.	.	.	.	.	.	.
.	16c/JJ	.	16a/JJ	.	.	.	.	.	.	.	.	.	.
8F\	16e-/LL	.	16cc\LL	.	.	.	.	.	.	.	.	.	.
.	16e-/	.	16cc\	.	.	.	.	.	.	.	.	.	.
8F\J	16e-/	.	16cc\	.	.	.	.	.	.	.	.	.	.
.	16e-/JJ	.	16cc\JJ	.	.	.	.	.	.	.	.	.	.
*Xtremolo	*Xtremolo	*	*Xtremolo	*	*	*	*	*	*	*	*	*	*
=100	=100	=100	=100	=100	=100	=100	=100	=100	=100	=100	=100	=100	=100
4B-\	4d 4B-/	.	4b- 4d/	.	4B-\	-son	4dd\	-son	4d/	4b-\	4b-\	4dd\	.
4B-\	4r	.	4r	.	4B-\	e-	4dd\	e-	4r	4r	8dd\L	8ff\L	.
.	.	.	.	.	.	.	.	.	.	.	8cc\J	8ee-\J	.
4B-\	4d 4B-/	.	4bb- 4b-\	.	2B-\	-lei-	2dd\	-lei-	4d/	4b-\	4b-\	4dd\	.
4B-\	4d 4B-/	.	4bb- 4b-\	.	.	.	.	.	4d/	4b-\	4b-\	4dd\	.
=101	=101	=101	=101	=101	=101	=101	=101	=101	=101	=101	=101	=101	=101
!	!	!	!LO:LB:g=original	!	!	!	!	!	!	!	!	!	!
4B-\	4d 4B-/	.	4bb- 4b-\	.	4B-\	-son	4dd\	-son	4d/	4b-\	4b-\	4dd\	.
4r	4r	.	4r	.	4r	.	4r	.	4r	4r	4r	4r	.
!	!LO:TX:b:i:t=Gloria Volti Subito	!	!LO:TX:b:i:t=Gloria Volti Subito	!	!	!	!	!	!	!	!	!	!
2r	2r	.	2r	.	2r	.	2r	.	2r	2r	2r	2r	.
==	==	==	==	==	==	==	==	==	==	==	==	==	==
*-	*-	*-	*-	*-	*-	*-	*-	*-	*-	*-	*-	*-	*-
!!!system-decoration: [(g1)][(g2)][(g3)][(g4)]s9
!!!RDF**kern: > = above
!!!RDF**kern: < = below
!!!RDF**dynam: p = p.
!!!RDF**dynam: f = f.
!!!ENC: Filip Voros
!!!END: 2021-11-23
!!!ENC: Kamil Watkowski
!!!END: 2021-11-29
